!!!!SEGMENT: pl-wtm--r-1710_stefani-jozef--mazur-no-22.krn
!!!cenid: 18xx:2322
!!!COM: Stefani, Józef
!!!COM-rismid: pe30024097
!!!CDT: 1800/04/16-1876/03/19
!!!CNT: Polish
!!!OTL: Mazur No. 22
!!!PDT:
!!!AGN: Secular; Mazurka
!!!SMS-siglum: PL-Wtm
!!!SMS-shelfmark: R 1710
!!!SMS-shelfwork: W
!!!SMS-variant:
!!!SMS-altvar:
!!!NIFC-rismid: 1001128759
!!!URL-scan: http://repozytorium.nifc.pl/skany/pl-wtm-nut--r1710
!!!ONB-nifc:
!!!key:
**kern	**dynam	**kern	**dynam	**kern	**dynam	**kern	**dynam	**kern	**dynam	**kern	**dynam	**kern	**dynam	**kern	**dynam	**kern	**dynam	**kern	**dynam	**kern	**dynam	**kern	**dynam	**kern	**dynam
*part13	*part13	*part12	*part12	*part11	*part11	*part10	*part10	*part9	*part9	*part8	*part8	*part7	*part7	*part6	*part6	*part5	*part5	*part4	*part4	*part3	*part3	*part2	*part2	*part1	*part1
*staff13	*	*staff12	*	*staff11	*	*staff10	*	*staff9	*	*staff8	*	*staff7	*	*staff6	*	*staff5	*	*staff4	*	*staff3	*	*staff2	*	*staff1	*
*Itimpa	*	*Iempty	*	*Iviola	*	*Ivioln	*	*Ivioln	*	*Itromt	*	*Itromp	*	*Ifagot	*	*Icor	*	*Iclars	*	*Ioboe	*	*Ipicco	*	*Iflt	*
*I"Timpani d. a.	*	*I"Basſi	*	*I"Viole	*	*I"Violini	*	*I"Violini	*	*I"Tromboni	*	*I"Trombe	*	*I"Fagotti	*	*I"Corni in d.	*	*I"in C Clarinetti	*	*I"Oboe	*	*I"Picolo	*	*I"Flauto	*
*clefF4	*	*clefF4	*	*clefC3	*	*clefG2	*	*clefG2	*	*clefF4	*	*clefG2	*	*clefF4	*	*clefG2	*	*clefG2	*	*clefG2	*	*clefG2	*	*clefG2	*
*	*	*	*	*	*	*	*	*	*	*	*	*	*	*	*	*ITrd6c10	*	*	*	*	*	*ITrd0c0	*	*	*
*k[]	*	*k[f#c#]	*	*k[f#c#]	*	*k[f#c#]	*	*k[f#c#]	*	*k[f#c#]	*	*k[f#c#]	*	*k[f#c#]	*	*k[f#c#]	*	*k[]	*	*k[f#c#]	*	*k[f#c#]	*	*k[f#c#]	*
*D:	*	*D:	*	*D:	*	*D:	*	*D:	*	*D:	*	*D:	*	*D:	*	*D:	*	*D:	*	*D:	*	*D:	*	*D:	*
*M3/8	*	*M3/8	*	*M3/8	*	*M3/8	*	*M3/8	*	*M3/8	*	*M3/8	*	*M3/8	*	*M3/8	*	*M3/8	*	*M3/8	*	*M3/8	*	*M3/8	*
*stria1	*	*	*	*	*	*	*	*	*	*	*	*	*	*	*	*	*	*	*	*	*	*	*	*	*
*>[A,A,B,B,C,C,D,D1,D,D2]	*	*	*	*	*	*	*	*	*	*	*	*	*	*	*	*	*	*	*	*	*	*	*	*	*
=1	=1	=1	=1	=1	=1	=1	=1	=1	=1	=1	=1	=1	=1	=1	=1	=1	=1	=1	=1	=1	=1	=1	=1	=1	=1
*>A	*	*	*	*	*	*	*	*	*	*	*	*	*	*	*	*	*	*	*	*	*	*	*	*	*
!	!	!	!	!LO:TX:a:t=Col b&colon;	!	!	!	!	!	!	!	!	!	!	!	!	!	!	!	!	!	!	!	!	!
!LO:SIC:s=8D/	!	!	!	!	!	!LO:TX:a:t=Uniſ	!	!	!	!	!	!	!	!	!LO:DY:rj	!	!	!	!	!	!	!	!	!LO:TX:a:t=No 22. Mazur. „ieżeli? to ostatni.	!
8Re/	.	16.D\LL|	f	16.d\LLyy|	fyy	16.d/LLyy	fyy	16.d/LL	f	4.r	.	16.d/LL	.	16.D\LL	f	4.r	.	4.r	.	4.r	.	4.r	.	4.r	.
.	.	32F#\JJk|	.	32f#\JJkyy|	.	32f#/JJkyy	.	32f#/JJk	.	.	.	32f#/JJk	.	32F#\JJk	.	.	.	.	.	.	.	.	.	.	.
8r	.	8.A\L|	.	8.a\Lyy|	.	8.a/Lyy	.	8.a/L	.	.	.	8.a/L	.	8.A\L	.	.	.	.	.	.	.	.	.	.	.
8r	.	.	.	.	.	.	.	.	.	.	.	.	.	.	.	.	.	.	.	.	.	.	.	.	.
.	.	16G#X\Jk	.	16g#X\Jkyy	.	16g#X/Jkyy	.	16g#X/Jk	.	.	.	16g#X/Jk	.	16G#X\Jk	.	.	.	.	.	.	.	.	.	.	.
=2	=2	=2	=2	=2	=2	=2	=2	=2	=2	=2	=2	=2	=2	=2	=2	=2	=2	=2	=2	=2	=2	=2	=2	=2	=2
4.r	.	16A\LL|	.	16a\LLyy|	.	16a'/LLyy	.	16a'/LL	.	4.r	.	16a/LL	.	16A'\LL	.	4.r	.	4.r	.	4.r	.	4.r	.	4.r	.
.	.	16F#\JJ|	.	16f#\JJyy|	.	16f#'/JJyy	.	16f#'/JJ	.	.	.	16f#/JJ	.	16F#'\JJ	.	.	.	.	.	.	.	.	.	.	.
.	.	8A\L|	.	8a\Lyy|	.	8a'/Lyy	.	8a'/L	.	.	.	8a/L	.	8A'\L	.	.	.	.	.	.	.	.	.	.	.
.	.	8dJ 8D\	.	8ddyyJ 8d\yy	.	8dd'/Jyy	.	8dd'/J	.	.	.	8ddJ 8d/	.	8dJ 8D\	.	.	.	.	.	.	.	.	.	.	.
=3	=3	=3	=3	=3	=3	=3	=3	=3	=3	=3	=3	=3	=3	=3	=3	=3	=3	=3	=3	=3	=3	=3	=3	=3	=3
*	*	*	*	*	*	*	*	*	*	*^	*	*	*	*	*	*	*	*	*	*	*	*	*	*	*
!LO:SIC:s=16D/	!	!	!	!	!	!	!	!	!	!	!	!	!	!	!	!	!	!	!	!	!	!	!	!	!	!
16Re/	.	16GG/	.	16G/yy	.	16.g/LL|	.	16.bLL 16.d 16.G/	.	16.BLL 16.G/	16GG\	.	16.bLL 16.g/	.	16G 16GG\	.	16d 16D/	.	16.bLL 16.g/	.	16.ggLL 16.b\|	.	16.bb\LL	.	16.bb\LL|	.
16r	.	16r	.	16ryy	.	.	.	.	.	.	16r	.	.	.	16r	.	16r	.	.	.	.	.	.	.	.	.
!	!	!	!	!	!	!	!	!	!	!	!	!	!	!	!	!	!	!	!LO:SIC:v:n=1:s=32cc#	!	!	!	!	!	!	!
.	.	.	.	.	.	32a/JJk	.	32cc#/JJk	.	32c#JJk 32A/	.	.	32cc#JJk 32a/	.	.	.	.	.	32ccJJk 32a/	.	32aaJJk 32cc#\|	.	32ccc#\JJk	.	32ccc#\JJk|	.
!LO:SIC:s=8D/L	!	!	!	!	!	!	!	!	!	!	!	!	!	!	!	!	!	!	!	!	!	!	!	!	!	!
8Re/L	.	8G\L	.	8g\Lyy	.	8.b/L	.	8.dd/L	.	8.dL 8.B/	8GG\L	.	8.ddL 8.b/	.	8GL 8GG\	.	8dL 8D/	.	8.ddL 8.b/	.	8.bbL 8.dd\|	.	8.ddd\L	.	8.ddd\L|	.
!LO:SIC:s=8D/J	!	!	!	!	!	!	!	!	!	!	!	!	!	!	!	!	!	!	!	!	!	!	!	!	!	!
8Re/J	.	8G\J	.	8g\Jyy	.	.	.	.	.	.	8GG\J	.	.	.	8GJ 8GG\	.	8dJ 8D/	.	.	.	.	.	.	.	.	.
.	.	.	.	.	.	16g/Jk	.	16b/Jk	.	16BJk 16G/	.	.	16bJk 16g/	.	.	.	.	.	16bJk 16g/	.	16ggJk 16b\|	.	16bb\Jk	.	16bb\Jk|	.
*	*	*	*	*	*	*	*	*	*	*v	*v	*	*	*	*	*	*	*	*	*	*	*	*	*	*	*
=4	=4	=4	=4	=4	=4	=4	=4	=4	=4	=4	=4	=4	=4	=4	=4	=4	=4	=4	=4	=4	=4	=4	=4	=4	=4
*	*	*	*	*	*	*	*	*	*	*	*	*^	*	*	*	*	*	*	*	*	*	*	*	*	*
*tremolo	*	*tremolo	*	*	*	*	*	*	*	*	*	*	*	*	*	*	*	*	*	*	*	*	*	*	*	*
!LO:SIC:s=8D/L	!	!	!	!	!	!	!	!	!	!	!	!	!	!	!	!	!	!	!	!	!	!	!	!	!	!
8Re/L	.	8D\L	.	8d\Lyy	.	(16g/LL	.	(16b/LL	.	8r	.	(16bLL 16g/	16ryy	.	16BLL 16G\	.	8dL 8D/	.	(16bLL 16g/	.	(16ggLL 16b\	.	4.r	.	(16bb\LL	.
!	!	!	!	!	!	!	!	!	!	!	!	!	!	!	!	!	!	!	!LO:SIC:v:n=2:s=16f#	!	!	!	!	!	!	!
.	.	.	.	.	.	16f#/JJ)	.	16a/JJ)	.	.	.	16aJJ 16f#/)	16ryy	.	16A\JJ	.	.	.	16aJJ 16f/)	.	16ff#JJ 16a\)	.	.	.	16aa\JJ)	.
!LO:SIC:s=8D/	!	!	!	!	!	!	!	!	!	!	!	!	!	!	!	!	!	!	!LO:SIC:v:n=1:s=8ff#	!	!	!	!	!	!	!
8Re/	.	8D\	.	8d\yy	.	8a/L	.	8ff#L 8a 8d\	.	8d 8F# 8D\	.	8ff#/L	8f#/L	.	8f#L 8F#\	.	8d 8D/	.	8ffL 8a\	.	8aaL 8ff#\	.	.	.	8fff#'\L	.
!LO:SIC:s=8D/J	!	!	!	!	!	!	!	!	!	!	!	!	!	!	!	!	!	!	!LO:SIC:v:n=2:s=8f#	!	!	!	!	!	!	!
8Re/J	.	8D\J	.	8d\Jyy	.	8f#/J	.	8ddJ 8d\	.	8r	.	8dd/J	8d/J	.	8dJ 8D\	.	8dJ 8D/	.	8ddJ 8f\	.	8ff#J 8dd\	.	.	.	8ddd'\J	.
*Xtremolo	*	*Xtremolo	*	*	*	*	*	*	*	*	*	*	*	*	*	*	*	*	*	*	*	*	*	*	*	*
*	*	*	*	*	*	*	*	*	*	*	*	*v	*v	*	*	*	*	*	*	*	*	*	*	*	*	*
!!LO:PB:g=original
=5	=5	=5	=5	=5	=5	=5	=5	=5	=5	=5	=5	=5	=5	=5	=5	=5	=5	=5	=5	=5	=5	=5	=5	=5	=5
!LO:SIC:s=8AA\	!	!	!	!	!	!	!	!	!	!	!	!	!	!	!	!	!	!LO:SIC:v:n=1:s=16.cc#	!	!	!	!	!	!	!
8Re\	.	8AA/	.	8r	.	8r	.	8r	.	8r	.	8r	.	8r	.	8r	.	16.ccLL 16.e/	.	16.eeLL 16.cc#\	.	16.cc#\LL	.	16.ccc#\LL	.
!	!	!	!	!	!	!	!	!	!	!	!	!	!	!	!	!	!	!LO:SIC:v:n=2:s=32f#	!	!	!	!	!	!	!
.	.	.	.	.	.	.	.	.	.	.	.	.	.	.	.	.	.	32ddJJk 32f/	.	32ff#JJk 32dd\	.	32dd\JJk	.	32ddd\JJk	.
8r	.	8r	.	8eL 8A\	.	8gL 8A/	sf	8eeL 8g\	sf	8c# 8G 8AA\	.	16a/LL	sf	8AL 8AA\	.	8eL 8A/	sf	8eeL 8g/	sf	8ggL 8ee\	.	8ee\L	.	8eee\L	.
.	.	.	.	.	.	.	.	.	.	.	.	16a/J	.	.	.	.	.	.	.	.	.	.	.	.	.
!	!	!	!	!	!	!	!	!	!	!	!	!	!	!	!	!	!	!LO:SIC:v:n=1:s=8cc#	!	!	!	!	!	!	!
8r	.	8AA/	.	8eJ 8A\	.	8gJ 8A/	.	8cc#J 8e\	.	8r	.	8a/J	.	8GJ 8AA\	.	8eJ 8A/	.	8ccJ 8e/	.	8eeJ 8cc#\	.	8cc#\J	.	8ccc#\J	.
=6	=6	=6	=6	=6	=6	=6	=6	=6	=6	=6	=6	=6	=6	=6	=6	=6	=6	=6	=6	=6	=6	=6	=6	=6	=6
!	!	!	!	!	!	!	!	!	!	!	!	!	!	!	!	!	!	!LO:SIC:v:n=2:s=16.f#	!	!	!	!	!	!	!
8r	.	8D\	.	8r	.	8r	.	8r	.	8r	.	8r	.	8r	.	8r	.	16.ddLL 16.f/	.	16.ff#LL 16.dd\	.	16.dd\LL	.	16.ddd\LL	.
.	.	.	.	.	.	.	.	.	.	.	.	.	.	.	.	.	.	32eeJJk 32a/	.	32eeJJk 32a\	.	32ee\JJk	.	32eee\JK	.
!LO:SIC:s=8D/	!	!	!	!	!	!	!	!	!	!	!	!	!	!	!	!	!	!	!	!	!	!	!	!	!
8Re/	.	8r	.	8d\L	.	8f#L 8A/	sf	8ddL 8f#\	sf	8d 8F# 8D\	sf	16ddLL 16d/	.	8F#L 8D\	.	8dL 8A/	sf	8ffL 8dd\	sf	8ff#L 8dd\	.	8ff#\L	.	8fff#\	.
.	.	.	.	.	.	.	.	.	.	.	.	16ddJ 16d/	.	.	.	.	.	.	.	.	.	.	.	.	.
!	!	!	!	!	!	!	!	!	!	!	!	!	!	!	!	!	!	!LO:SIC:v:n=2:s=8f#	!	!	!	!	!	!	!
8r	.	8D\	.	8d\J	.	8f#J 8A/	.	8aJ 8f#\	.	8r	.	8ddJ 8d/	.	8F#J 8D\	.	8dJ 8A/	.	8aJ 8f\	.	8aaJ 8ff#\	.	8aa\J	.	8fff#\J	.
=7	=7	=7	=7	=7	=7	=7	=7	=7	=7	=7	=7	=7	=7	=7	=7	=7	=7	=7	=7	=7	=7	=7	=7	=7	=7
*	*	*	*	*	*	*	*	*	*	*	*	*	*	*	*	*^	*	*	*	*^	*	*	*	*	*
*tremolo	*	*tremolo	*	*tremolo	*	*	*	*	*	*	*	*	*	*	*	*	*	*	*	*	*	*	*	*	*	*	*
!LO:SIC:s=8D/L	!	!	!	!	!	!	!LO:DY:rj	!	!LO:DY:rj	!	!LO:DY:rj	!	!	!	!	!	!	!LO:DY:rj	!	!	!	!	!	!	!	!	!LO:DY:rj
8Re/L	.	8E\L	f	8dL 8B\	.	16.e\LL	f	16.g#X\LL|	f	4.d 4.B 4.E\	f	16.g#XLL 16.e/	.	4.B 4.E\	.	4.e/	4.d\	f	16.g#XLL 16.e\	.	4.ee/	4.dd\	f	16.gg#X\LL	.	16.eee\LL	f
!	!	!	!	!	!	!	!	!	!	!	!	!	!	!	!	!	!	!	!LO:SIC:v:n=1:s=32ff#	!	!	!	!	!	!	!	!
.	.	.	.	.	.	32dd\K	.	32ff#\K|	.	.	.	32ff#K 32dd/	.	.	.	.	.	.	32ffK 32dd\	.	.	.	.	32ff#\K	.	32ddd\K	.
!LO:SIC:s=8D/	!	!	!	!	!	!	!	!	!	!	!	!	!	!	!	!	!	!	!LO:SIC:v:n=2:s=16.cc#	!	!	!	!	!	!	!	!
8Re/	.	8E\	.	8d 8B\	.	16.cc#\	.	16.ee\|	.	.	.	16.ee 16.cc#/	.	.	.	.	.	.	16.ee 16.cc\	.	.	.	.	16.ee\	.	16.ccc#\	.
.	.	.	.	.	.	32b\K	.	32dd\K|	.	.	.	32ddK 32b/	.	.	.	.	.	.	32ddK 32b\	.	.	.	.	32dd\K	.	32bb\K	.
!LO:SIC:s=8D/J	!	!	!	!	!	!	!	!	!	!	!	!	!	!	!	!	!	!	!LO:SIC:v:n=1:s=16.cc#	!	!	!	!	!	!	!	!
8Re/J	.	8E\J	.	8dJ 8B\	.	16.a\	.	16.cc#\|	.	.	.	16.cc# 16.a/	.	.	.	.	.	.	16.cc 16.a\	.	.	.	.	16.cc#\	.	16.aa\	.
.	.	.	.	.	.	32g#X\JJk	.	32b\JJk|	.	.	.	32bJJk 32g#X/	.	.	.	.	.	.	32bJJk 32g#\	.	.	.	.	32b\JJk	.	32gg#X\JJk	.
*Xtremolo	*	*Xtremolo	*	*Xtremolo	*	*	*	*	*	*	*	*	*	*	*	*	*	*	*	*	*	*	*	*	*	*	*
*	*	*	*	*	*	*	*	*	*	*	*	*	*	*	*	*v	*v	*	*	*	*	*	*	*	*	*	*
=8	=8	=8	=8	=8	=8	=8	=8	=8	=8	=8	=8	=8	=8	=8	=8	=8	=8	=8	=8	=8	=8	=8	=8	=8	=8	=8
*	*	*	*	*	*	*	*	*	*	*	*	*^	*	*	*	*	*	*^	*	*	*	*	*	*	*	*
!LO:SIC:s=16AA\	!	!	!	!	!	!	!	!	!	!	!	!	!	!	!	!	!	!	!	!	!	!	!	!	!	!	!	!
16Re\	.	16A\	.	16c#\	.	16a/	.	16a/|	.	16c# 16A\	.	16a/	16a\	.	16c# 16A\	.	16e 16A/	.	16a/	16a\	.	16ee/	16cc#\	.	16a/	.	16aa\	.
16r	.	16r	.	16r	.	16r	.	16r	.	16r	.	16r	16ryy	.	16r	.	16r	.	16r	16ryy	.	16r	16ryy	.	16r	.	16r	.
!LO:SIC:s=8AA\	!	!	!	!	!	!	!	!	!	!	!	!	!	!	!	!	!	!	!LO:SIC:v:n=2:s=8cc#	!	!	!	!	!	!	!	!	!
8Re\	.	8AA/	.	8e 8A/	.	8cc# 8e/	.	8aa 8a\|	.	8c# 8A 8AA\	.	8a/	8a\	.	8c# 8AA\	.	8e 8A/	.	8aa 8cc\	8ryy	.	8ee/	8cc#\	.	8aa\	.	8aa\	.
8r	.	8r	.	8r	.	8r	.	8r	.	8r	.	8r	8ryy	.	8r	.	8r	.	8r	8ryy	.	8r	8ryy	.	8r	.	8r	.
*	*	*	*	*	*	*	*	*	*	*	*	*	*	*	*	*	*	*	*v	*v	*	*	*	*	*	*	*	*
=9:|!|:	=9:|!|:	=9:|!|:	=9:|!|:	=9:|!|:	=9:|!|:	=9:|!|:	=9:|!|:	=9:|!|:	=9:|!|:	=9:|!|:	=9:|!|:	=9:|!|:	=9:|!|:	=9:|!|:	=9:|!|:	=9:|!|:	=9:|!|:	=9:|!|:	=9:|!|:	=9:|!|:	=9:|!|:	=9:|!|:	=9:|!|:	=9:|!|:	=9:|!|:	=9:|!|:	=9:|!|:
*>B	*	*	*	*	*	*	*	*	*	*	*	*	*	*	*	*	*	*	*	*	*	*	*	*	*	*	*
*	*	*	*	*	*	*	*	*	*	*	*	*	*	*	*	*	*^	*	*	*	*	*	*	*	*	*	*
!	!	!	!LO:DY:rj	!	!	!	!LO:DY:rj	!	!	!	!	!	!	!	!	!LO:DY:rj	!	!	!LO:DY:rj	!	!	!	!	!	!	!	!	!
8r	.	8G\L	fp	8d\L	.	8eL 8B-X/	fp	16.eeLL 16.b-X 16.g\|	fp	4.r	.	16.e/LL	4.r	.	4d 4G\	fp	4e/	4B-X\	fp	16e'/LL	.	16.ee/LL	8r	.	16.ee\LL|	.	4.r	.
!	!	!	!	!	!	!	!	!	!	!	!	!	!	!	!	!	!	!	!	!LO:SIC:v:s=16f#	!	!	!	!	!	!	!	!
.	.	.	.	.	.	.	.	.	.	.	.	.	.	.	.	.	.	.	.	16f'/	.	.	.	.	.	.	.	.
.	.	.	.	.	.	.	.	32ff#\K	.	.	.	32f#/K	.	.	.	.	.	.	.	.	.	32ff#/K	.	.	32ff#\K|	.	.	.
8r	.	8G\	.	8d\	.	8e 8B-/	.	16gg\JJ|	.	.	.	16g/JJ	.	.	.	.	.	.	.	16g'/	.	16gg/	16.r	.	16gg\|	.	.	.
.	.	.	.	.	.	.	.	16r	.	.	.	16r	.	.	.	.	.	.	.	32r	.	32r	.	.	32r	.	.	.
.	.	.	.	.	.	.	.	.	.	.	.	.	.	.	.	.	.	.	.	(32b-X'/JJk	.	(<32bb-X/JJk	32b\	.	(32bb-X\JJk	.	.	.
!LO:SIC:s=8AA\	!	!	!	!	!	!	!	!	!	!	!	!	!	!	!	!	!	!	!	!	!	!	!	!	!	!	!	!
8Re\	.	8A\J	sf	8c#\J	sf	8eJ 8A/	sf	8r	.	.	.	8r	.	.	8c# 8A\	sf	8e/	8A\	sf	8a/)	.	8aa/)	8a\	.	8aa\)	.	.	.
*	*	*	*	*	*	*	*	*	*	*	*	*v	*v	*	*	*	*v	*v	*	*	*	*v	*v	*	*	*	*	*
!!LO:PB:g=original
=10	=10	=10	=10	=10	=10	=10	=10	=10	=10	=10	=10	=10	=10	=10	=10	=10	=10	=10	=10	=10	=10	=10	=10	=10	=10
*	*	*	*	*^	*	*	*	*	*	*	*	*	*	*	*	*	*	*	*	*	*	*	*	*	*
!LO:SIC:s=16D/	!	!	!	!	!	!	!	!	!	!	!	!	!	!LO:DY:rj	!	!LO:DY:rj	!	!LO:DY:rj	!LO:SIC:v:n=2:s=16.f#	!	!	!LO:DY:rj	!	!	!	!LO:DY:rj
16Re/	.	16D/	f	16d/	16d\	f	16.ff#\LL 16.a\ 16.d\	.	16.dddLL 16.dd 16.d\|	f	16d 16F# 16D\	.	16.ddLL 16.f#/|	f	16d 16D\	f	16f# 16A/	f	16.ddLL 16.f/	.	16.dddLL 16.ff#\	f	16.ddd\LL|	.	16.ddd\LL|	f
16r	.	16r	.	16r	16ryy	.	.	.	.	.	16r	.	.	.	16r	.	16r	.	.	.	.	.	.	.	.	.
!	!	!	!	!	!	!	!	!	!	!	!	!	!	!	!	!	!	!	!LO:SIC:v:n=1:s=32f#	!	!	!	!	!	!	!
.	.	.	.	.	.	.	32dd\JJk	.	32ff#\JJk	.	.	.	32f#JJk 32d/|	.	.	.	.	.	32fJJk 32d/	.	32ff#JJk 32dd\	.	32ff#\JJk|	.	32ff#\JJk	.
!LO:SIC:s=8D/L	!	!	!	!	!	!	!	!	!	!	!	!	!	!	!	!	!	!	!	!	!	!	!	!	!	!
8Re/L	.	8GG/L	.	8ddL 8d\	8ryy	.	(8gg\L	.	(8bbn\L	.	8BL 8G 8GG\	.	(8bL 8g/	.	8dL 8GG\	.	8gL 8B/	.	8bL 8g/	.	(8bbL 8gg\	.	(8bb\L	.	(8bb\L	.
!LO:SIC:s=8D/J	!	!	!	!	!	!	!	!	!	!	!	!	!	!	!	!	!	!	!LO:SIC:v:n=2:s=8f#	!	!	!	!	!	!	!
8Re/J	.	8D/J	.	8ddJ 8d\	8ryy	.	8ff#\J)	.	8aa\J)	.	8dJ 8F# 8D\	.	8aJ 8f#/)	.	8dJ 8D\	.	8f#J 8A/	.	8aJ 8f/	.	8aaJ 8ff#\)	.	8aa\J)	.	8aa\J)	.
*	*	*	*	*v	*v	*	*	*	*	*	*	*	*	*	*	*	*	*	*	*	*	*	*	*	*	*
=11	=11	=11	=11	=11	=11	=11	=11	=11	=11	=11	=11	=11	=11	=11	=11	=11	=11	=11	=11	=11	=11	=11	=11	=11	=11
*	*	*	*	*	*	*	*	*	*	*	*	*^	*	*	*	*^	*	*^	*	*^	*	*	*	*	*
!	!	!	!LO:DY:rj	!	!	!	!LO:DY:a	!	!LO:DY:a	!	!	!	!	!	!	!LO:DY:rj	!	!	!LO:DY:rj	!	!	!	!	!	!	!	!	!	!
8r	.	8G\L	fp	4d\	.	8eL 8B/	p	16.eeLL 16.b 16.e 16.G/	fp	4.r	.	16.e/LL	4.r	.	4d 4G\	fp	4e/	4B-X\	fp	16.e'/LL	4.r	.	16.ee/LL	8r	.	16.ee'\LL	.	4.r	.
!	!	!	!	!	!	!	!	!	!	!	!	!	!	!	!	!	!	!	!	!LO:SIC:v:s=32f#	!	!	!	!	!	!	!	!	!
.	.	.	.	.	.	.	.	32ff#/K	.	.	.	32f#/K	.	.	.	.	.	.	.	32f'/K	.	.	32ff#/K	.	.	32ff#'\K	.	.	.
8r	.	8G\	.	.	.	8e 8B/	.	16gg/JJ	.	.	.	16g/JJ	.	.	.	.	.	.	.	16g'/	.	.	16gg/	16.r	.	16gg'\	.	.	.
.	.	.	.	.	.	.	.	16r	.	.	.	16r	.	.	.	.	.	.	.	32r	.	.	32r	.	.	32r	.	.	.
.	.	.	.	.	.	.	.	.	.	.	.	.	.	.	.	.	.	.	.	(32b-X/JK	.	.	32bb-X/JK	32b\KKL	.	32bb-X\JK	.	.	.
!LO:SIC:s=8AA\	!	!	!	!	!	!	!LO:DY:a	!	!	!	!	!	!	!	!	!	!	!	!	!	!	!	!	!	!	!	!	!	!
8Re\	.	8A\J	sf	8c#\	sf	8eJ 8A/	sf	8r	.	.	.	8r	.	.	8c# 8A\	sf	8e/	8A\	sf sf	8a/J)	.	.	8aa/J	8a\J	.	8aa\J	.	.	.
*	*	*	*	*	*	*	*	*	*	*	*	*v	*v	*	*	*	*v	*v	*	*	*	*	*	*	*	*	*	*	*
=12	=12	=12	=12	=12	=12	=12	=12	=12	=12	=12	=12	=12	=12	=12	=12	=12	=12	=12	=12	=12	=12	=12	=12	=12	=12	=12	=12
*	*	*	*	*^	*	*	*	*	*	*	*	*	*	*	*	*	*	*	*	*	*	*	*	*	*	*	*
*tremolo	*	*tremolo	*	*tremolo	*tremolo	*	*tremolo	*	*	*	*tremolo	*	*	*	*tremolo	*	*tremolo	*	*	*tremolo	*	*tremolo	*	*	*	*	*	*
!LO:SIC:s=8D/L	!	!	!	!	!	!	!	!	!	!	!	!	!	!	!	!LO:DY:rj	!	!LO:DY:rj	!LO:SIC:v:n=2:s=8f#	!	!	!	!	!	!	!	!	!LO:DY:rj
8Re/L	.	8dL 8D\	f	8d/L	8d\L	f	8f#L 8A/	f	16.ff#LL 16.a 16.d\|	f	8dL 8F# 8D\	.	16.f#/LL|	.	8dL 8D\	f	8f#L 8A/	f	16.ff/LL	8f\L	f	16.ff#/LL	8a\L	.	16.fff#\LL	.	16.fff#\LL|	f
.	.	.	.	.	.	.	.	.	32cc#\JJk|	.	.	.	32c#/JJk|	.	.	.	.	.	32cc/JJk	.	.	32cc#/JJk	.	.	32ccc#\JJk	.	32ccc#\JJk|	.
!LO:SIC:s=8D/	!	!	!	!	!	!	!	!	!	!	!	!	!	!	!	!	!	!	!LO:SIC:v:n=2:s=8f#	!	!	!	!	!	!	!	!	!
8Re/	.	8d 8D\	.	8d/	8d\	.	8f# 8A/	.	16dd'\LL	.	8d 8F# 8D\	.	16d'/LL	.	8d 8D\	.	8f# 8A/	.	16dd/LL	8f\	.	16dd/LL	8a\	.	16ddd\LL	.	16ddd\LL|	.
.	.	.	.	.	.	.	.	.	16b'\J	.	.	.	16B'/J	.	.	.	.	.	16b/J	.	.	16b/J	.	.	16bbn\J	.	16bb'\J	.
!LO:SIC:s=8D/J	!	!	!	!	!	!	!	!	!	!	!	!	!	!	!	!	!	!	!LO:SIC:v:n=2:s=8f#	!	!	!	!	!	!	!	!	!
8Re/J	.	8dJ 8D\	.	8d/J	8d\J	.	8f#J 8A/	.	8a'\J	.	8dJ 8F# 8D\	.	8A'/J	.	8dJ 8D\	.	8f#J 8A/	.	8a/J	8f\J	.	8a/J	8a\J	.	8aa\J	.	8aa'\J	.
*Xtremolo	*	*Xtremolo	*	*Xtremolo	*Xtremolo	*	*Xtremolo	*	*	*	*Xtremolo	*	*	*	*Xtremolo	*	*Xtremolo	*	*	*Xtremolo	*	*	*Xtremolo	*	*	*	*	*
*	*	*	*	*v	*v	*	*	*	*	*	*	*	*	*	*	*	*	*	*	*	*	*	*	*	*	*	*	*
=13	=13	=13	=13	=13	=13	=13	=13	=13	=13	=13	=13	=13	=13	=13	=13	=13	=13	=13	=13	=13	=13	=13	=13	=13	=13	=13	=13
*	*	*	*	*	*	*	*	*	*	*	*	*^	*	*	*	*^	*	*	*	*	*	*	*	*	*	*	*
!	!	!	!	!	!	!	!	!	!	!	!	!	!	!	!	!LO:DY:rj	!	!	!LO:DY:rj	!	!	!	!	!	!	!	!	!	!
8r	.	8G\L	fp	4d\	fp	8eL 8B-X/	fp	16eeLL 16b-X 16g\|	fp	4.r	.	16.e/LL	4.r	.	4d 4G\	fp	4e/	4B-X\	fp	16.e'/LL	4.r	.	16.ee/LL	8r	.	16.ee\LL	.	4.r	.
.	.	.	.	.	.	.	.	16ff#'\	.	.	.	.	.	.	.	.	.	.	.	.	.	.	.	.	.	.	.	.	.
!	!	!	!	!	!	!	!	!	!	!	!	!	!	!	!	!	!	!	!	!LO:SIC:v:s=32f#	!	!	!	!	!	!	!	!	!
.	.	.	.	.	.	.	.	.	.	.	.	32f#/K	.	.	.	.	.	.	.	32f'/K	.	.	32ff#/K	.	.	32ff#\K	.	.	.
8r	.	8G\	.	.	.	8e 8B-/	.	16gg'\JJ	.	.	.	16g/JJ	.	.	.	.	.	.	.	16g'/	.	.	16gg/	16.r	.	16gg\	.	.	.
.	.	.	.	.	.	.	.	16r	.	.	.	16r	.	.	.	.	.	.	.	32r	.	.	32r	.	.	32r	.	.	.
.	.	.	.	.	.	.	.	.	.	.	.	.	.	.	.	.	.	.	.	(<32b-X/JK	.	.	32bb-X/JK	(>32b-X\KKL	.	32bb-X\JK	.	.	.
!LO:SIC:s=8AA\	!	!	!	!	!	!	!	!	!	!	!	!	!	!	!	!	!	!	!	!	!	!	!	!	!	!	!	!	!
8Re\	.	8A\J	sf	8c#\	sf	8eJ 8A/	.	8r	.	.	.	8r	.	.	8c# 8A\	sf	8e/	8A\	sf sf	8a/J)	.	.	8aa/J	8a\J)	.	8aa\J	.	.	.
*	*	*	*	*	*	*	*	*	*	*	*	*	*	*	*	*	*v	*v	*	*	*	*	*v	*v	*	*	*	*	*
*	*	*	*	*	*	*	*	*	*	*	*	*v	*v	*	*	*	*	*	*v	*v	*	*	*	*	*	*	*
=14	=14	=14	=14	=14	=14	=14	=14	=14	=14	=14	=14	=14	=14	=14	=14	=14	=14	=14	=14	=14	=14	=14	=14	=14	=14
*	*	*^	*	*	*	*	*	*	*	*	*	*	*	*	*	*	*	*	*	*	*	*	*	*	*
!	!	!	!	!	!	!	!	!	!	!	!	!	!	!	!	!	!	!	!LO:SIC:v:n=2:s=16.f#	!	!	!	!	!	!	!
!LO:SIC:s=16D/	!	!	!	!LO:DY:rj	!	!LO:DY:rj	!	!	!	!	!	!	!	!	!	!	!	!	!	!	!	!	!	!	!	!LO:DY:rj
16Re/	.	4.B/	16D\	f	16d\KL	f	16.ff#LL 16.a 16.d\	.	16.dddLL 16.dd 16.d\|	f	16d 16F# 16D\	.	16.ddLL 16.f#/|	.	16d 16D\	f	16f# 16A/	f	16.ddLL 16.f/|	.	16.dddLL 16.ff#\|	f	16.ddd\LL|	.	16.ddd\LL|	f
16r	.	.	16r	.	16r	.	.	.	.	.	16r	.	.	.	16r	.	16r	.	.	.	.	.	.	.	.	.
!	!	!	!	!	!	!	!	!	!	!	!	!	!	!	!	!	!	!	!LO:SIC:v:n=1:s=32f#	!	!	!	!	!	!	!
.	.	.	.	.	.	.	32dd\JJk	.	32ff#\JJk|	.	.	.	32f#JJk 32d/|	.	.	.	.	.	32fJJk 32d/|	.	32ff#\JJk	.	32ff#\JJk	.	32ff#\JJk	.
!LO:SIC:s=8D/L	!	!	!	!	!	!	!	!	!	!	!	!	!	!	!	!	!	!	!	!	!	!	!	!	!	!
8Re/L	.	.	8GG/L	.	8dd 8d\	.	(8gg\L	.	(8bbn\L	.	8dL 8G 8GG\	.	(8bL 8g/	.	8dL 8GG\	.	8gL 8B/	.	(8bL 8g/	.	(8bbL 8gg\	.	(8bb\L	.	(8bb\L	.
!LO:SIC:s=8D/J	!	!	!	!	!	!	!	!	!	!	!	!	!	!	!	!	!	!	!LO:SIC:v:n=2:s=8f#	!	!	!	!	!	!	!
8Re/J	.	.	8D/J	.	8ddJ 8d\	.	8ff#\J)	.	8aa\J)	.	8dJ 8F# 8D\	.	8aJ 8f#/)	.	8dJ 8D\	.	8f#J 8A/	.	8aJ 8f/)	.	8aaJ 8ff#\)	.	8aa\J)	.	8aa\J)	.
*	*	*v	*v	*	*	*	*	*	*	*	*	*	*	*	*	*	*	*	*	*	*	*	*	*	*	*
=15	=15	=15	=15	=15	=15	=15	=15	=15	=15	=15	=15	=15	=15	=15	=15	=15	=15	=15	=15	=15	=15	=15	=15	=15	=15
*	*	*	*	*	*	*	*	*	*	*	*	*^	*	*	*	*^	*	*^	*	*	*	*	*	*	*
*	*	*tremolo	*	*tremolo	*	*tremolo	*	*	*	*	*	*	*	*	*	*	*	*	*	*	*	*	*	*	*	*	*	*
4.r	.	8E\L	.	8bL 8e\	.	8ddL 8e/	.	8r	.	4.r	.	16.g#X/LL	4.r	.	4.B 4.E\	.	4.e/	4.d\	.	16.g#X/LL	8r	.	8r	.	16.gg#X\LL	.	16.gg#X'\LL	.
.	.	.	.	.	.	.	.	.	.	.	.	32a/K	.	.	.	.	.	.	.	32a/K	.	.	.	.	32aa\K	.	32aa'\K	.
.	.	8E\	.	8b 8e\	.	8dd 8e/	.	8r	.	.	.	16b/JJ	.	.	.	.	.	.	.	16b/	8r	.	8r	.	16bb\	.	16bb'\	.
.	.	.	.	.	.	.	.	.	.	.	.	16r	.	.	.	.	.	.	.	32r	.	.	.	.	32r	.	32r	.
!	!	!	!	!	!	!	!	!	!	!	!	!	!	!	!	!	!	!	!	!LO:SIC:v:s=32ff#	!	!	!	!	!	!	!	!
.	.	.	.	.	.	.	.	.	.	.	.	.	.	.	.	.	.	.	.	32ff/JK	.	.	.	.	32fff#\JK	.	(32fff#\JK|	.
.	.	8E\J	.	8bJ 8e\	.	8ddJ 8e/	.	32r	.	.	.	8r	.	.	.	.	.	.	.	8ee/J	32r	.	32r	.	8eee\J	.	8eee\J)	.
!	!	!	!	!	!	!	!	!LO:TX:t=P:problem=błąd rytmiczny - triola	!	!	!	!	!	!	!	!	!	!	!	!	!	!	!	!	!	!	!	!
.	.	.	.	.	.	.	.	(32ee\LLL	.	.	.	.	.	.	.	.	.	.	.	.	(>32e\LLL	.	(32ee\LLL	.	.	.	.	.
!	!	!	!	!	!	!	!	!	!	!	!	!	!	!	!	!	!	!	!	!LO:SIC:v:s=32f#	!	!	!	!	!	!	!	!
.	.	.	.	.	.	.	.	32ff#\	.	.	.	.	.	.	.	.	.	.	.	.	32f\	.	32ff#\	.	.	.	.	.
.	.	.	.	.	.	.	.	32gg#X\JJJ	.	.	.	.	.	.	.	.	.	.	.	.	32g#X\JJJ)	.	32gg#X\JJJ	.	.	.	.	.
*	*	*Xtremolo	*	*Xtremolo	*	*Xtremolo	*	*	*	*	*	*	*	*	*	*	*	*	*	*	*	*	*	*	*	*	*	*
!!LO:PB:g=original
=16	=16	=16	=16	=16	=16	=16	=16	=16	=16	=16	=16	=16	=16	=16	=16	=16	=16	=16	=16	=16	=16	=16	=16	=16	=16	=16	=16	=16
*	*	*	*	*	*	*	*	*	*	*	*	*	*	*	*	*	*	*	*	*	*	*	*^	*	*	*	*	*
!	!	!	!	!	!	!	!	!	!	!	!	!	!	!	!	!	!	!	!	!LO:SIC:v:n=1:s=16cc#	!	!	!	!	!	!	!	!	!
4.ryy	.	16AA/	.	16a\	.	16cc# 16e/	.	16aa\)	.	8r	.	8r	8ryy	.	16c# 16A\	.	16e 16A\	16ryy	.	16cc/yy	16a\yy	.	16aa\)yy	16ryy	.	16aa\	.	16aa\	.
.	.	16r	.	16r	.	16r	.	16r	.	.	.	.	.	.	16r	.	16r	16ryy	.	16ryy	16ryy	.	16ryy	16ryy	.	16r	.	16r	.
.	.	4A^<\	.	4A^/	.	4a^/	.	4a^/	.	4A 4AA\	.	4a^</	4a\	.	4A 4AA\	.	4A/	4A\	.	4a/yy	4a^\yy	.	4a/yy	4a^\yy	.	4a^/	.	4aa^<\	.
*	*	*	*	*	*	*	*	*	*	*	*	*	*	*	*	*	*v	*v	*	*	*	*	*v	*v	*	*	*	*	*
*	*	*	*	*	*	*	*	*	*	*	*	*v	*v	*	*	*	*	*	*v	*v	*	*	*	*	*	*	*
=17	=17	=17	=17	=17	=17	=17	=17	=17	=17	=17	=17	=17	=17	=17	=17	=17	=17	=17	=17	=17	=17	=17	=17	=17	=17
!	!	!	!	!LO:TX:a:t=Col b&colon;	!	!	!	!	!	!	!	!	!	!	!	!	!	!	!	!	!	!	!	!	!
!LO:SIC:s=8D/	!	!	!	!	!	!LO:TX:a:t=Uniſ	!	!	!	!	!	!	!	!	!	!	!	!LO:SIC:v:t=błędne oznaczenie tonacji:s=ff# cc#	!	!	!	!	!	!	!
8Re/yy	.	16.D\LLyy|	fyy	16.d\LLyy|	f	16.d/LLyy	.	16.d/LL	.	4.ryy	.	16.d/LLyy	.	16.D\LLyy	fyy	4.ryy	.	4.ryy	.	4.ryy	.	4.ryy	.	4.ryy	.
.	.	32F#\JJkyy|	.	32f#\JJkyy|	.	32f#/JJkyy	.	32f#/JJk	.	.	.	32f#/JJkyy	.	32F#\JJkyy	.	.	.	.	.	.	.	.	.	.	.
8ryy	.	8.A\Lyy|	.	8.a\Lyy|	.	8.a/Lyy	.	8.a/L	.	.	.	8.a/Lyy	.	8.A\Lyy	.	.	.	.	.	.	.	.	.	.	.
8ryy	.	.	.	.	.	.	.	.	.	.	.	.	.	.	.	.	.	.	.	.	.	.	.	.	.
.	.	16G#X\Jkyy	.	16g#X\Jkyy	.	16g#X/Jkyy	.	16g#X/Jk	.	.	.	16g#X/Jkyy	.	16G#X\Jkyy	.	.	.	.	.	.	.	.	.	.	.
=18	=18	=18	=18	=18	=18	=18	=18	=18	=18	=18	=18	=18	=18	=18	=18	=18	=18	=18	=18	=18	=18	=18	=18	=18	=18
4.ryy	.	16A\LLyy|	.	16a\LLyy|	.	16a/LLyy	.	16a/LL	.	4.ryy	.	16a/LLyy	.	16A'\LLyy	.	4.ryy	.	4.ryy	.	4.ryy	.	4.ryy	.	4.ryy	.
.	.	16F#\JJyy|	.	16f#\JJyy|	.	16f#/JJyy	.	16f#/JJ	.	.	.	16f#/JJyy	.	16F#'\JJyy	.	.	.	.	.	.	.	.	.	.	.
.	.	8A\Lyy|	.	8a\Lyy|	.	8a/Lyy	.	8a/L	.	.	.	8a/Lyy	.	8A'\Lyy	.	.	.	.	.	.	.	.	.	.	.
.	.	8dyyJ 8D\yy	.	8ddyyJ 8d\yy	.	8ddyyJ 8d/yy	.	8ddJ 8d/	.	.	.	8ddyyJ 8d/yy	.	8dyyJ 8D\yy	.	.	.	.	.	.	.	.	.	.	.
=19	=19	=19	=19	=19	=19	=19	=19	=19	=19	=19	=19	=19	=19	=19	=19	=19	=19	=19	=19	=19	=19	=19	=19	=19	=19
*	*	*	*	*	*	*	*	*	*	*^	*	*	*	*	*	*	*	*	*	*	*	*	*	*	*
!LO:SIC:s=16D/	!	!	!	!	!	!	!	!	!	!	!	!	!	!	!	!	!	!	!	!	!	!	!	!	!	!
16Re/yy	.	16GG/yy	.	16G/yy	.	16.g/LL	.	16.bLL 16.d 16.G/	.	16.ByyLL 16.G/yy	16GG\yy	.	16.byyLL 16.g/yy	.	16Gyy 16GG\yy	.	16dyy 16D/yy	.	16.byyLL 16.g/yy	.	16.ggyyLL 16.b\yy|	.	16.bb\LLyy	.	16.bb\LLyy|	.
16ryy	.	16ryy	.	16ryy	.	.	.	.	.	.	16ryy	.	.	.	16ryy	.	16ryy	.	.	.	.	.	.	.	.	.
!	!	!	!	!	!	!	!	!	!	!	!	!	!	!	!	!	!	!	!LO:SIC:v:n=1:s=32cc#	!	!	!	!	!	!	!
.	.	.	.	.	.	32a/JJk	.	32cc#/JJk	.	32c#yyJJk 32A/yy	.	.	32cc#yyJJk 32a/yy	.	.	.	.	.	32ccyyJJk 32a/yy	.	32aayyJJk 32cc#\yy|	.	32ccc#\JJkyy	.	32ccc#\JJkyy|	.
!LO:SIC:s=8D/L	!	!	!	!	!	!	!	!	!	!	!	!	!	!	!	!	!	!	!	!	!	!	!	!	!	!
8Re/yy	.	8G\Lyy	.	8g\Lyy	.	8.b/L	.	8.dd/L	.	8.dyyL 8.B/yy	8GG\Lyy	.	8.ddyyL 8.b/yy	.	8GyyL 8GG\yy	.	8dyyL 8D/yy	.	8.ddyyL 8.b/yy	.	8.bbyyL 8.dd\yy|	.	8.ddd\Lyy	.	8.ddd\Lyy|	.
8D/Jyy	.	8G\Jyy	.	8g\Jyy	.	.	.	.	.	.	8GG\Jyy	.	.	.	8GyyJ 8GG\yy	.	8dyyJ 8D/yy	.	.	.	.	.	.	.	.	.
.	.	.	.	.	.	16g/Jk	.	16cc#/Jk	.	16ByyJk 16G/yy	.	.	16byyJk 16g/yy	.	.	.	.	.	16byyJk 16g/yy	.	16ggyyJk 16b\yy|	.	16bb\Jkyy	.	16bb\Jkyy|	.
*	*	*	*	*	*	*	*	*	*	*v	*v	*	*	*	*	*	*	*	*	*	*	*	*	*	*	*
=20	=20	=20	=20	=20	=20	=20	=20	=20	=20	=20	=20	=20	=20	=20	=20	=20	=20	=20	=20	=20	=20	=20	=20	=20	=20
*	*	*	*	*	*	*	*	*^	*	*	*	*^	*	*	*	*	*	*	*	*	*	*	*	*	*
!LO:SIC:s=8D/L	!	!	!	!	!	!	!	!	!	!	!	!	!	!	!	!	!	!	!	!	!	!	!	!	!	!	!
8Re/Lyy	.	8D\Lyy	.	8d\Lyy	.	16b/LL	.	16b'/LL	16ryy	.	8ryy	.	(16byyLL yy16g/yy	16ryy	.	16ByyLL 16G\yy	.	8dyyL 8D/yy	.	(16byyLL yy16g/yy	.	(16ggyyLL yy16b\yy	.	4.ryy	.	(yy16bb\LLyy	.
!	!	!	!	!	!	!	!	!	!	!	!	!	!	!	!	!	!	!	!	!LO:SIC:v:n=2:s=16f#	!	!	!	!	!	!	!
.	.	.	.	.	.	16a/JJ	.	16a'/JJ	16ryy	.	.	.	16ayyJJ 16f#/)yy	16ryy	.	16A\JJyy	.	.	.	16ayyJJ 16f/)yy	.	16ff#yyJJ 16a\)yy	.	.	.	16aa\JJ)yy	.
!LO:SIC:s=8D/	!	!	!	!	!	!	!	!	!	!	!	!	!	!	!	!	!	!	!	!LO:SIC:v:n=1:s=8ff#	!	!	!	!	!	!	!
8Re/yy	.	8D\yy	.	8d\yy	.	8f#/L	.	8ff#'\L	8f#/L	.	8dyy 8F#yy 8D\yy	.	8ff#/Lyy	8f#/Lyy	.	8f#yyL 8F#\yy	.	8dyy 8D/yy	.	8ffyyL 8a\yy	.	8aayyL 8ff#\yy	.	.	.	8fff#'\Lyy	.
!LO:SIC:s=8D/J	!	!	!	!	!	!	!	!	!	!	!	!	!	!	!	!	!	!	!	!LO:SIC:v:n=2:s=8f#	!	!	!	!	!	!	!
8Re/Jyy	.	8D\Jyy	.	8d\Jyy	.	8d/J	.	8dd'\J	8d/J	.	8ryy	.	8dd/Jyy	8d/Jyy	.	8dyyJ 8D\yy	.	8dyyJ 8D/yy	.	8ddyyJ 8f\yy	.	8ff#yyJ 8dd\yy	.	.	.	8ddd'\Jyy	.
*	*	*	*	*	*	*	*	*v	*v	*	*	*	*v	*v	*	*	*	*	*	*	*	*	*	*	*	*	*
=21	=21	=21	=21	=21	=21	=21	=21	=21	=21	=21	=21	=21	=21	=21	=21	=21	=21	=21	=21	=21	=21	=21	=21	=21	=21
!LO:SIC:s=8AA\	!	!	!	!	!	!	!	!	!	!	!	!	!	!	!	!	!	!LO:SIC:v:n=1:s=16.cc#	!	!	!	!	!	!	!
8Re\yy	.	8AA/yy	.	8ryy	.	8r	.	8r	.	8ryy	.	8ryy	.	8ryy	.	8ryy	.	16.ccyyLL 16.e/yy	.	16.eeyyLL 16.cc#\yy	.	16.cc#\LLyy	.	16.ccc#\LLyy	.
!	!	!	!	!	!	!	!	!	!	!	!	!	!	!	!	!	!	!LO:SIC:v:n=2:s=32f#	!	!	!	!	!	!	!
.	.	.	.	.	.	.	.	.	.	.	.	.	.	.	.	.	.	32ddyyJJk 32f/yy	.	32ff#yyJJk 32dd\yy	.	32dd\JJkyy	.	32ddd\JJkyy	.
8ryy	.	8ryy	.	8eyyL 8A\yy	.	8gL 8A/	.	8eeL 8g/	sf	8c#yy 8Gyy 8AA\yy	.	16a/LLyy	sfyy	8AyyL 8AA\yy	.	8eyyL 8A/yy	sfyy	8eeyyL 8g/yy	sfyy	8ggyyL 8ee\yy	.	8ee\Lyy	.	8eee\Lyy	.
.	.	.	.	.	.	.	.	.	.	.	.	16a/Jyy	.	.	.	.	.	.	.	.	.	.	.	.	.
!	!	!	!	!	!	!	!	!	!	!	!	!	!	!	!	!	!	!LO:SIC:v:n=1:s=8cc#	!	!	!	!	!	!	!
8ryy	.	8AA/yy	.	8eyyJ 8A\yy	.	8gJ 8A/	.	8cc#J 8e/	.	8ryy	.	8a/Jyy	.	8GyyJ 8AA\yy	.	8eyyJ 8A/yy	.	8ccyyJ 8e/yy	.	8eeyyJ 8cc#\yy	.	8cc#\Jyy	.	8ccc#\Jyy	.
!!LO:PB:g=original
=22	=22	=22	=22	=22	=22	=22	=22	=22	=22	=22	=22	=22	=22	=22	=22	=22	=22	=22	=22	=22	=22	=22	=22	=22	=22
!	!	!	!	!	!	!	!	!	!	!	!	!	!	!	!	!	!	!LO:SIC:v:n=2:s=16.f#	!	!	!	!	!	!	!
8ryy	.	8D\yy	.	8ryy	.	8r	.	8r	.	8ryy	.	8ryy	.	8ryy	.	8ryy	.	16.ddyyLL 16.f/yy	.	16.ff#yyLL 16.dd\yy	.	16.dd\LLyy	.	16.ddd\LLyy	.
.	.	.	.	.	.	.	.	.	.	.	.	.	.	.	.	.	.	32eeyyJJk 32a/yy	.	32eeyyJJk 32a\yy	.	32ee\JJkyy	.	32eee\JKyy	.
!LO:SIC:s=8D/	!	!	!	!	!	!	!	!	!	!	!	!	!	!	!	!	!	!	!	!	!	!	!	!	!
8Re/yy	.	8ryy	.	8d\Lyy	.	8f#L 8A/	sf	8ddL 8f#/	sf	8dyy 8F#yy 8D\yy	sfyy	16ddyyLL 16d/yy	.	8F#yyL 8D\yy	.	8dyyL 8A/yy	sfyy	8ffyyL 8dd\yy	sfyy	8ff#yyL 8dd\yy	.	8ff#\Lyy	.	8fff#\yy	.
.	.	.	.	.	.	.	.	.	.	.	.	16ddyyJ 16d/yy	.	.	.	.	.	.	.	.	.	.	.	.	.
!	!	!	!	!	!	!	!	!	!	!	!	!	!	!	!	!	!	!LO:SIC:v:n=2:s=8f#	!	!	!	!	!	!	!
8ryy	.	8D\yy	.	8d\Jyy	.	8f#J 8A/	.	8aJ 8f#/	.	8ryy	.	8ddyyJ 8d/yy	.	8F#yyyyJ 8D\yy	.	8dyyJ 8A/yy	.	8ayyJ 8f\yy	.	8aayyJ 8ff#\yy	.	8aa\Jyy	.	8fff#\Jyy	.
=23	=23	=23	=23	=23	=23	=23	=23	=23	=23	=23	=23	=23	=23	=23	=23	=23	=23	=23	=23	=23	=23	=23	=23	=23	=23
*	*	*	*	*	*	*	*	*	*	*	*	*	*	*	*	*^	*	*^	*	*	*	*	*	*	*
!	!	!	!	!	!	!	!	!	!	!	!LO:DY:rj	!	!	!	!	!	!	!	!	!	!	!	!	!LO:TX:a:t=col Fla&colon;	!	!	!
4.ryy	.	16G\	sf	16e^<\	.	16g 16B-X/	sf	(16b-X^<\LL	.	16B-X^> 16G 16GG\	f	16b-X 16g^/	f	16B-X 16G\	.	16e^</	16e\	f	(32b-X/KLL	16g\	.	16bb-X 16gg\	.	(yy16bb-X^\LLyy	fyy	(16bb-X^\LL	.
.	.	.	.	.	.	.	.	.	.	.	.	.	.	.	.	.	.	.	16ee/JJ)	.	.	.	.	.	.	.	.
.	.	16r	.	16r	.	16r	.	32ee\JJk)	.	16r	.	16r	.	16r	.	16r	16ryy	.	.	16r	.	16r	.	32eee\JJk)yy	.	32eee\JJk)	.
!	!	!	!	!	!	!	!	!	!	!	!	!	!	!	!	!	!	!	!LO:N:vis=16	!	!	!	!	!	!	!	!
.	.	.	.	.	.	.	.	32r	.	.	.	.	.	.	.	.	.	.	32r	.	.	.	.	32ryy	.	32r	.
!	!	!LO:TX:t=P:problem=mixed beam	!	!	!	!	!	!	!	!	!	!	!	!LO:TX:t=P:problem=mixed beam	!	!	!	!	!LO:SIC:v:n=2:s=8f#	!	!	!	!	!	!	!	!
.	.	8A\L	.	8d\L	.	8f#L 8A/	.	8a/L	.	8AL 8F# 8AA\	.	8aL 8f#/	.	8A\L	.	8f#L 8d\	8ryy	.	8a/L	8f\L	.	8aaL 8ff#\	.	8aa'\Lyy	.	8aa'\L	.
!	!	!	!	!	!	!	!	!	!	!	!	!	!	!	!	!	!	!	!LO:SIC:v:n=1:s=8cc#	!	!	!	!	!	!	!	!
.	.	8AA/J	.	8e\J	.	8gJ 8A/	.	8cc#/J	.	8AJ 8E 8AA\	.	8cc#J 8e/	.	8AA/J	.	8eJ 8A\	8ryy	.	8cc/J	8g\J	.	8ggJ 8ee\	.	8ccc#'\Jyy	.	8ccc#'\J	.
*	*	*	*	*	*	*	*	*	*	*	*	*	*	*	*	*v	*v	*	*	*	*	*	*	*	*	*	*
=24	=24	=24	=24	=24	=24	=24	=24	=24	=24	=24	=24	=24	=24	=24	=24	=24	=24	=24	=24	=24	=24	=24	=24	=24	=24	=24
*	*	*	*	*	*	*	*	*	*	*	*	*	*	*	*	*	*	*	*	*	*^	*	*	*	*	*
4.ryy	.	16D/	.	16d\	.	16f# 16A/	.	(32ee\KLL	.	16A 16F# 16D\	.	8r	.	16D\	.	16d 16F#/	.	32ee/KLL	16f\	.	8r	8ryy	.	(yy32eee\KLLyy	.	(32eee\KLL	.
.	.	.	.	.	.	.	.	16dd\JJ)	.	.	.	.	.	.	.	.	.	16dd/JJ	.	.	.	.	.	16ddd\JJ)yy	.	16ddd\JJ)	.
.	.	16r	.	16r	.	16r	.	.	.	16r	.	.	.	16r	.	16r	.	.	16r	.	.	.	.	.	.	.	.
.	.	.	.	.	.	.	.	32r	.	.	.	.	.	.	.	.	.	32r	.	.	.	.	.	32ryy	.	32r	.
!	!	!	!	!	!	!	!	!	!	!	!	!	!	!	!	!	!	!LO:SIC:v:n=2:s=8f#	!	!	!	!	!	!	!	!	!
.	.	8D/	.	8a 8d\	.	8ff# 8a\	.	8ddd 8dd\	.	8A 8F# 8D\	.	8dd 8f#/	.	8d 8D\	.	8d 8F#/	.	8dd 8f/	8ryy	.	8ff#/	8dd\	.	8ddd'\yy	.	8ddd'\	.
!	!	!LO:TX:t=P:problem=fine ołówkiem	!	!	!	!	!	!	!	!	!	!	!	!	!	!	!	!	!	!	!	!	!	!	!	!	!
.	.	8r	.	8r	.	8r	.	8r	.	8r	.	8r	.	8r	.	8r	.	8r	8ryy	.	8r	8ryy	.	8ryy	.	8r	.
*	*	*	*	*	*	*	*	*	*	*	*	*	*	*	*	*	*	*v	*v	*	*	*	*	*	*	*	*
*	*	*	*	*	*	*	*	*	*	*	*	*	*	*	*	*	*	*	*	*v	*v	*	*	*	*	*
=25:|!	=25:|!	=25:|!	=25:|!	=25:|!	=25:|!	=25:|!	=25:|!	=25:|!	=25:|!	=25:|!	=25:|!	=25:|!	=25:|!	=25:|!	=25:|!	=25:|!	=25:|!	=25:|!	=25:|!	=25:|!	=25:|!	=25:|!	=25:|!	=25:|!	=25:|!;
*>C	*	*	*	*	*	*	*	*	*	*	*	*	*	*	*	*	*	*	*	*	*	*	*	*	*
*k[f#]	*	*k[f#]	*	*k[f#]	*	*k[f#]	*	*k[f#]	*	*k[f#]	*	*k[f#]	*	*k[f#]	*	*k[f#c#]	*	*k[f#]	*	*k[f#]	*	*k[f#]	*	*k[f#]	*
*	*	*^	*	*	*	*	*	*	*	*	*	*	*	*^	*	*	*	*	*	*	*	*	*	*	*
*	*	*	*	*	*tremolo	*	*	*	*	*	*	*	*	*	*	*	*	*	*	*	*	*	*	*	*	*	*
!	!	!	!	!	!	!	!	!	!	!	!	!	!	!	!LO:TX:a:t=2o.	!	!	!	!	!	!	!	!	!	!	!	!
!	!	!	!	!	!	!	!LO:TX:a:t=4ta Corda	!	!LO:TX:a:t=4ta Corda	!	!	!	!	!	!LO:TX:t=P:problem=mixed beam	!	!	!	!	!	!	!	!	!	!	!LO:TX:a:t=Trio	!
4.ryy	.	16BB/	16BB\	.	16B/LL	mf	8d'^>/L	.	8f#'^>/L	mf	4.r	.	4.r	.	4.r	8BB/L	.	4.r	.	4.r	.	8ff#L 8dd~^<\	.	4.r	.	4.r	.
.	.	16B/LL	16r	.	16B/	.	.	.	.	.	.	.	.	.	.	.	.	.	.	.	.	.	.	.	.	.	.
.	.	16B/	8r	.	16B/	.	8d'^>/	.	8f#'^>/	.	.	.	.	.	.	8B\	.	.	.	.	.	8ff# 8dd~^<\	.	.	.	.	.
.	.	16B/	.	.	16B/	.	.	.	.	.	.	.	.	.	.	.	.	.	.	.	.	.	.	.	.	.	.
.	.	16B/	8r	.	16B/	.	8d'^>/J	.	8f#'^>/J	.	.	.	.	.	.	8B\J	.	.	.	.	.	8ff#J 8dd~^<\	.	.	.	.	.
.	.	16B/JJ	.	.	16B/JJ	.	.	.	.	.	.	.	.	.	.	.	.	.	.	.	.	.	.	.	.	.	.
=26	=26	=26	=26	=26	=26	=26	=26	=26	=26	=26	=26	=26	=26	=26	=26	=26	=26	=26	=26	=26	=26	=26	=26	=26	=26	=26	=26
*	*	*	*	*	*	*	*	*	*	*	*	*	*	*	*	*	*	*	*	*	*	*	*	*^	*	*	*
*	*	*rep	*rep	*	*rep	*	*	*	*	*	*	*	*	*	*	*rep	*	*	*	*	*	*	*	*	*	*	*	*
!	!	!	!	!	!	!	!	!	!	!	!	!	!	!	!LO:TX:t=P:problem=mixed beam	!	!	!	!	!	!	!	!	!	!	!	!	!
4.ryy	.	16BB/	16BB\	.	16B/LL	.	16.e/LL	.	16.g/LL	.	4.r	.	4.r	.	4.r	8BB/L	.	4.r	.	4.r	.	16.ggLL 16.ee\	.	16.gg\LL	4.r	.	4.r	.
.	.	16B/LL	16r	.	16B/	.	.	.	.	.	.	.	.	.	.	.	.	.	.	.	.	.	.	.	.	.	.	.
.	.	.	.	.	.	.	32e/JJk	.	32g/JJk	.	.	.	.	.	.	.	.	.	.	.	.	32ggJJk 32ee\	.	32gg\JJk	.	.	.	.
.	.	16B/	8r	.	16B/	.	8d/L	.	8f#/L	.	.	.	.	.	.	8B\	.	.	.	.	.	8ff#L 8dd\	.	8ff#\L	.	.	.	.
.	.	16B/	.	.	16B/	.	.	.	.	.	.	.	.	.	.	.	.	.	.	.	.	.	.	.	.	.	.	.
.	.	16B/	8r	.	16B/	.	8cT/J	.	8eT/J	.	.	.	.	.	.	8B\J	.	.	.	.	.	8eeJ 8cc#Xt\	.	8eeT\J	.	.	.	.
.	.	16B/JJ	.	.	16B/JJ	.	.	.	.	.	.	.	.	.	.	.	.	.	.	.	.	.	.	.	.	.	.	.
*	*	*Xrep	*Xrep	*	*Xrep	*	*	*	*	*	*	*	*	*	*	*Xrep	*	*	*	*	*	*	*	*	*	*	*	*
*	*	*	*	*	*	*	*	*	*	*	*	*	*	*	*	*	*	*	*	*	*	*	*	*v	*v	*	*	*
=27	=27	=27	=27	=27	=27	=27	=27	=27	=27	=27	=27	=27	=27	=27	=27	=27	=27	=27	=27	=27	=27	=27	=27	=27	=27	=27	=27
*	*	*rep	*rep	*	*rep	*	*	*	*	*	*	*	*	*	*	*rep	*	*	*	*	*	*	*	*	*	*	*
!	!	!	!	!	!	!	!	!	!	!	!	!	!	!	!LO:TX:t=P:problem=mixed beam	!	!	!	!	!	!	!	!	!	!	!	!
4.ryy	.	16BB/	16BB\	.	16B/LL	.	8B^>/L	.	8d'^>/L	.	4.r	.	4.r	.	4.r	8BB/L	.	4.r	.	4.r	.	8ddL 8b^<\	.	4.r	.	4.r	.
.	.	16B/LL	16r	.	16B/	.	.	.	.	.	.	.	.	.	.	.	.	.	.	.	.	.	.	.	.	.	.
.	.	16B/	8r	.	16B/	.	8d^>/	.	8f#'^>/	.	.	.	.	.	.	8B\	.	.	.	.	.	8ff# 8dd^<\	.	.	.	.	.
.	.	16B/	.	.	16B/	.	.	.	.	.	.	.	.	.	.	.	.	.	.	.	.	.	.	.	.	.	.
.	.	16B/	8r	.	16B/	.	8d^>/J	.	8f#'^>/J	.	.	.	.	.	.	8B\J	.	.	.	.	.	8ff#J 8dd^<\	.	.	.	.	.
.	.	16B/JJ	.	.	16B/JJ	.	.	.	.	.	.	.	.	.	.	.	.	.	.	.	.	.	.	.	.	.	.
*	*	*Xrep	*Xrep	*	*Xrep	*	*	*	*	*	*	*	*	*	*	*Xrep	*	*	*	*	*	*	*	*	*	*	*
=28	=28	=28	=28	=28	=28	=28	=28	=28	=28	=28	=28	=28	=28	=28	=28	=28	=28	=28	=28	=28	=28	=28	=28	=28	=28	=28	=28
*	*	*	*	*	*	*	*	*	*	*	*	*	*	*	*	*	*	*	*	*	*	*	*	*^	*	*	*
*	*	*rep	*rep	*	*rep	*	*	*	*	*	*	*	*	*	*	*rep	*	*	*	*	*	*	*	*	*	*	*	*
!	!	!	!	!	!	!	!	!	!	!	!	!	!	!	!LO:TX:t=P:problem=mixed beam	!	!	!	!	!	!	!	!	!	!	!	!	!
4.ryy	.	16BB/	16BB\	.	16B/LL	.	16.e/LL	.	16.g/LL	.	4.r	.	4.r	.	4.r	8BB\L	.	4.r	.	4.r	.	16.ggLL 16.ee\	.	16gg\LL	4.r	.	4.r	.
.	.	16B/LL	16r	.	16B/	.	.	.	.	.	.	.	.	.	.	.	.	.	.	.	.	.	.	16gg\J	.	.	.	.
.	.	.	.	.	.	.	32e/JJk	.	32g/JJk	.	.	.	.	.	.	.	.	.	.	.	.	32ggJJk 32ee\	.	.	.	.	.	.
.	.	16B/	8r	.	16B/	.	8d/L	.	8f#/L	.	.	.	.	.	.	8B\	.	.	.	.	.	8ff#L 8dd\	.	8ff#\	.	.	.	.
.	.	16B/	.	.	16B/	.	.	.	.	.	.	.	.	.	.	.	.	.	.	.	.	.	.	.	.	.	.	.
.	.	16B/	8r	.	16B/	.	8Bt/J	.	8dT/J	.	.	.	.	.	.	8B\J	.	.	.	.	.	8ddJ 8bt\	.	8ddT\J	.	.	.	.
.	.	16B/JJ	.	.	16B/JJ	.	.	.	.	.	.	.	.	.	.	.	.	.	.	.	.	.	.	.	.	.	.	.
*	*	*Xrep	*Xrep	*	*Xrep	*	*	*	*	*	*	*	*	*	*	*Xrep	*	*	*	*	*	*	*	*	*	*	*	*
*	*	*	*	*	*Xtremolo	*	*	*	*	*	*	*	*	*	*	*	*	*	*	*	*	*	*	*	*	*	*	*
*	*	*v	*v	*	*	*	*	*	*	*	*	*	*	*	*	*	*	*	*	*	*	*	*	*v	*v	*	*	*
=29	=29	=29	=29	=29	=29	=29	=29	=29	=29	=29	=29	=29	=29	=29	=29	=29	=29	=29	=29	=29	=29	=29	=29	=29	=29	=29
*	*	*	*	*	*	*	*	*	*	*	*	*^	*	*	*	*	*	*	*^	*	*	*	*	*	*	*
!	!	!	!LO:DY:rj	!	!	!LO:N:vis=8	!	!LO:N:vis=8	!	!	!	!	!	!	!	!	!LO:DY:rj	!	!LO:DY:rj	!	!	!	!	!	!	!	!	!
4.ryy	.	16FF#/	fp	16r	.	16r	.	16r	.	4.r	.	8r	4.r	.	(4.e/	4A#X\	fp	[>4.f# [>4.F#/	fp	(16cc#X^/LL	4.r	.	4.r	.	4.r	.	(16ccc#X^<\LL	.
.	.	16r	.	16F#/	.	16A#X/LL	.	16eLL 16c#X/	p	.	.	.	.	.	.	.	.	.	.	32ff#/JJk)	.	.	.	.	.	.	32fff#\JJk)	.
.	.	.	.	.	.	.	.	.	.	.	.	.	.	.	.	.	.	.	.	32r	.	.	.	.	.	.	32r	.
.	.	16F#\	.	16r	.	16r	.	16r	.	.	.	8f#/L	.	.	.	.	.	.	.	8f#/L|	.	.	.	.	.	.	8ff#'\L	.
.	.	16r	.	16F#/LL	.	16A#/	.	16e 16c#/	.	.	.	.	.	.	.	.	.	.	.	.	.	.	.	.	.	.	.	.
.	.	16FF#/	p	16r	.	16r	.	16r	.	.	.	8a#X/J	.	.	.	8c#X\	.	.	.	8a#X/J|	.	.	.	.	.	.	8aa#X'\J	.
.	.	16r	.	16F#/JJ	.	16A#/JJ	.	16eJJ 16c#/	.	.	.	.	.	.	.	.	.	.	.	.	.	.	.	.	.	.	.	.
=30	=30	=30	=30	=30	=30	=30	=30	=30	=30	=30	=30	=30	=30	=30	=30	=30	=30	=30	=30	=30	=30	=30	=30	=30	=30	=30	=30	=30
!	!	!	!	!	!	!LO:N:vis=8	!	!	!	!	!	!	!	!	!	!	!	!	!	!	!	!	!	!	!	!	!	!
4.ryy	.	16BB/	.	16r	.	16r	.	16r	.	4.r	.	16b/LL	4.r	.	4.d/	4.B\	.	4.f#] 4.F#/]	.	16b/LL|	4.r	.	4.r	.	4.r	.	16.bb'\LL	.
.	.	16r	.	16F#/LL	.	16B/LL	.	16d/LL	.	.	.	16cc#X/JJ	.	.	.	.	.	.	.	16cc#X/JJ|	.	.	.	.	.	.	.	.
.	.	.	.	.	.	.	.	.	.	.	.	.	.	.	.	.	.	.	.	.	.	.	.	.	.	.	32ccc#X'\JJk	.
.	.	16B\	.	16r	.	16r	.	16r	.	.	.	4dd/	.	.	.	.	.	.	.	4dd/|	.	.	.	.	.	.	4ddd'\	.
.	.	16r	.	16F#/	.	16B/	.	16d/	.	.	.	.	.	.	.	.	.	.	.	.	.	.	.	.	.	.	.	.
.	.	16BB/	.	16r	.	16r	.	16r	.	.	.	.	.	.	.	.	.	.	.	.	.	.	.	.	.	.	.	.
.	.	16r	.	16F#/JJ	.	16B/JJ	.	16d/JJ	.	.	.	.	.	.	.	.	.	.	.	.	.	.	.	.	.	.	.	.
*	*	*	*	*	*	*	*	*	*	*	*	*v	*v	*	*	*	*	*	*	*v	*v	*	*	*	*	*	*	*
!!LO:PB:g=original
=31	=31	=31	=31	=31	=31	=31	=31	=31	=31	=31	=31	=31	=31	=31	=31	=31	=31	=31	=31	=31	=31	=31	=31	=31	=31	=31
*	*	*	*	*	*	*	*	*	*	*	*	*	*	*	*	*	*	*	*	*	*^	*	*	*	*	*
!LO:SIC:s=8AA\	!	!LO:N:vis=8	!	!LO:N:vis=8	!	!LO:N:vis=8	!	!	!LO:DY:rj	!	!LO:DY:a	!	!	!	!	!	!	!LO:DY:rj	!	!	!	!	!	!	!	!	!
8Re\	.	16AA/	.	16r	.	16r	.	(16ee^\LL	sf	4.e 4.G 4.AA\	sf	8r	.	4.c#X/)	4.A\	.	4.e 4.A^/	sf	(16eeLL 16e^/	.	4.cc#X/	4.g\	.	(16ee^<\LL	f	(16eee\LL	.
.	.	16r	.	16c#X\LL	.	16eLL 16A/	.	32aa\JJk)	.	.	.	.	.	.	.	.	.	.	32aaJJk 32a/)	.	.	.	.	32aa\JJk)	.	32aaa\JJk)	.
.	.	.	.	.	.	.	.	32r	.	.	.	.	.	.	.	.	.	.	32r	.	.	.	.	32r	.	32r	.
!	!	!	!	!	!	!	!	!	!	!	!	!LO:TX:a:t=due	!	!	!	!	!	!	!	!	!	!	!	!	!	!	!
8r	.	16A\	.	16r	.	16r	.	8a'\L	.	.	.	8A/L	>	.	.	.	.	.	8aL 8A/	.	.	.	.	8a'\L	.	8aa\L	.
.	.	16r	.	16c#\	.	16e 16A/	.	.	.	.	.	.	.	.	.	.	.	.	.	.	.	.	.	.	.	.	.
8r	.	16AA/	.	16r	.	16r	.	8ee'\J	.	.	.	8e/J	]]	.	.	.	.	.	8eeJ 8e/	.	.	.	.	8ee'\J	.	8eee\J	.
.	.	16r	.	16c#\JJ	.	16eJJ 16A/	.	.	.	.	.	.	.	.	.	.	.	.	.	.	.	.	.	.	.	.	.
*	*	*	*	*	*	*	*	*	*	*	*	*	*	*v	*v	*	*	*	*	*	*v	*v	*	*	*	*	*
=32	=32	=32	=32	=32	=32	=32	=32	=32	=32	=32	=32	=32	=32	=32	=32	=32	=32	=32	=32	=32	=32	=32	=32	=32	=32
.	.	.	.	.	.	.	.	(8qgg/	.	.	.	.	.	.	.	.	.	(8qgg (8qg/	.	.	.	(8qgg/	f	(8qggg/	.
*	*	*	*	*	*	*	*	*	*	*	*	*	*	*	*	*^	*	*	*	*	*	*	*	*	*
!LO:SIC:s=16.D/	!	!	!LO:DY:rj	!	!LO:DY:rj	!	!LO:DY:rj:a	!	!	!	!LO:DY:rj:a	!	!LO:DY:rj:a	!	!	!	!	!LO:DY:rj	!	!	!	!	!	!	!	!
16.Re/	.	16.D/LL|	f	16.d\LL	f	16.f#LL 16.A/	f	16ff#\LL)	.	16.dLL 16.F# 16.D\	f	16.f#/LL	f	16.dLL 16.D\|	.	16f#LL 16d/	16ryy	f	16.ff#LL 16.f#/))	.	16.ddLL 16.f#/	.	16ff#\LL)	.	16fff#\LL)	.
.	.	.	.	.	.	.	.	16ee\JJ|	.	.	.	.	.	.	.	16eJJ 16A/	16ryy	.	.	.	.	.	16ee\JJ|	.	16eee\JJ|	.
!LO:SIC:s=32AA\	!	!	!	!	!	!	!	!	!	!	!	!	!	!	!	!	!	!	!	!	!	!	!	!	!	!
32Re\	.	32AA/JJk|	.	32c#X\JJk	.	32eJJk 32A/	.	.	.	32c#XJJk 32E 32AA\	.	32e/JJk	.	32cJJk 32AA\|	.	.	.	.	32eeJJk 32e/	.	32ccJJk 32e/	.	.	.	.	.
!LO:SIC:s=4D/	!	!	!	!	!	!	!	!	!	!	!	!	!	!	!	!	!	!	!	!	!	!	!	!	!	!
4Re/	.	4D/|	.	4d\	.	4f# 4A/	.	4dd\|	.	4d 4F# 4D\	.	4d/	.	4d 4D\|	.	4f#/	4d\	.	4dd 4d/	.	4dd 4f#/	.	4dd\|	.	4ddd\|	.
*	*	*	*	*	*	*	*	*	*	*	*	*	*	*	*	*v	*v	*	*	*	*	*	*	*	*	*
=33:|!|:	=33:|!|:	=33:|!|:	=33:|!|:	=33:|!|:	=33:|!|:	=33:|!|:	=33:|!|:	=33:|!|:	=33:|!|:	=33:|!|:	=33:|!|:	=33:|!|:	=33:|!|:	=33:|!|:	=33:|!|:	=33:|!|:	=33:|!|:	=33:|!|:	=33:|!|:	=33:|!|:	=33:|!|:	=33:|!|:	=33:|!|:	=33:|!|:	=33:|!|:
*>D	*	*	*	*	*	*	*	*	*	*	*	*	*	*	*	*	*	*	*	*	*	*	*	*	*
!LO:SIC:s=16D/	!	!	!LO:DY:rj	!	!	!	!LO:DY:rj	!	!LO:DY:rj	!	!	!	!	!LO:TX:a:t=col b&colon;	!	!	!	!	!LO:DY:rj	!	!LO:DY:rj	!LO:TX:a:t=Col Flauto	!	!	!
16Re/	f	16D\	f	16f# 16A\	.	16aa 16dd\	f	16cccn 16cc\|	f	16d 16F# 16D\	.	16cc 16a/	.	16D\yy	.	16d 16D/	.	16cc 16a/	f	16aa 16ff#\	f	16cc\yy|	.	16ccc\|	f
16r	.	16r	.	16r	.	16r	.	16r	.	16r	.	16r	.	16ryy	.	16r	.	16r	.	16r	.	16ryy	.	16r	.
*rep	*	*	*	*	*	*	*	*	*	*rep	*	*	*	*	*	*rep	*	*	*	*	*	*	*	*	*
!	!	!	!	!	!	!	!	!	!	!	!	!	!	!	!	!	!	!	!	!	!	!	!	!LO:TX:a:t=1.	!
!LO:SIC:s=16D/	!	!	!	!	!	!	!	!	!	!	!	!	!	!	!	!	!	!	!	!	!	!	!	!	!
16Re/	.	16d 16D\	.	16a 16A\	.	16dd 16f#/	.	16dd 16d/|	.	16d 16F# 16D\	.	16a 16f#/	.	16dyy 16D\yy	.	16d 16D/	.	16a 16f#/	.	16ccc 16aa\	.	16a/yy|	.	16aa\|	.
16r	.	16r	.	16r	.	16r	.	16r	.	16r	.	16r	.	16ryy	.	16r	.	16r	.	16r	.	16ryy	.	16r	.
*Xrep	*	*	*	*	*	*	*	*	*	*Xrep	*	*	*	*	*	*Xrep	*	*	*	*	*	*	*	*	*
*rep	*	*	*	*	*	*	*	*	*	*rep	*	*	*	*	*	*rep	*	*	*	*	*	*	*	*	*
!LO:SIC:s=16D/	!	!	!	!	!	!	!	!	!	!	!	!	!	!	!	!	!	!	!	!	!	!	!	!	!
16Re/	.	16D\	.	16f# 16A\	.	16aa 16dd\	.	16ddd 16dd\|	.	16d 16F# 16D\	.	16cc 16a/	.	16D\yy	.	16d 16D/	.	16cc 16a/	.	16aa 16ff#\	.	16cc\yy|	.	16ccc\|	.
16r	.	16r	.	16r	.	16r	.	16r	.	16r	.	16r	.	16ryy	.	16r	.	16r	.	16r	.	16ryy	.	16r	.
*Xrep	*	*	*	*	*	*	*	*	*	*Xrep	*	*	*	*	*	*Xrep	*	*	*	*	*	*	*	*	*
=34	=34	=34	=34	=34	=34	=34	=34	=34	=34	=34	=34	=34	=34	=34	=34	=34	=34	=34	=34	=34	=34	=34	=34	=34	=34
4.r	.	16G\	.	16g 16B\	.	16gg\LL	.	16bb'\LL	.	4.r	.	16bLL 16g/	.	16G\yy	.	4.r	.	16bLL 16g'/	.	16gg'\LL	.	16b\LLyy|	.	16bb\LL|	.
.	.	16r	.	16r	.	16aa\	.	16ccc'\	.	.	.	16cc 16a/	.	16ryy	.	.	.	16cc 16a'/	.	16aa'\	.	16cc\yy|	.	16ccc\|	.
!	!	!	!	!	!	!	!	!	!	!	!	!	!	!	!	!	!	!	!	!	!	!	!	!LO:TX:a:t=2.	!
.	.	16GG/	.	16g 16B\	.	16bb\	.	16ddd'\	.	.	.	16dd 16b/	.	16GG/yy	.	.	.	16dd 16b'/	.	16bb'\	.	16dd\yy|	.	16ddd\|	.
.	.	16r	.	16r	.	16ccc\J	.	16eee'\J	.	.	.	16eeJ 16cc/	.	16ryy	.	.	.	16eeJ 16cc'/	.	16ccc'\J	.	16ee\Jyy|	.	16eee\J|	.
.	.	8G\	.	8g 8B\	.	8bb\J	.	8ddd'\J	.	.	.	8ddJ 8b/	.	8G\yy	.	.	.	8ddJ 8b'/	.	8bb'\J	.	8dd\Jyy|	.	8ddd\J|	.
=35	=35	=35	=35	=35	=35	=35	=35	=35	=35	=35	=35	=35	=35	=35	=35	=35	=35	=35	=35	=35	=35	=35	=35	=35	=35
!LO:SIC:s=16D/	!	!	!	!	!	!	!	!	!	!	!	!	!	!	!	!	!	!	!	!	!	!	!	!	!
16Re/	.	16D\	.	16f# 16A\	.	16aa 16dd\	.	16ccc 16dd\	.	16d 16F# 16D\	.	16cc 16a/	.	16D\yy	.	16d 16D/	.	16cc 16a/	.	16aa 16ff#\	.	16cc\yy|	.	16ccc\|	.
16r	.	16r	.	16r	.	16r	.	16r	.	16r	.	16r	.	16ryy	.	16r	.	16r	.	16r	.	16ryy	.	16r	.
*rep	*	*	*	*	*	*	*	*	*	*rep	*	*	*	*	*	*rep	*	*	*	*	*	*	*	*	*
!LO:SIC:s=16D/	!	!	!	!	!	!	!	!	!	!	!	!	!	!	!	!	!	!	!	!	!	!	!	!	!
16Re/	.	16d 16D\	.	16a 16A\	.	16dd 16f#\	.	16dd 16d/	.	16d 16F# 16D\	.	16a 16f#/	.	16dyy 16D\yy	.	16d 16D/	.	16a 16f#/	.	16ccc 16aa\	.	16a/yy|	.	16aa\|	.
16r	.	16r	.	16r	.	16r	.	16r	.	16r	.	16r	.	16ryy	.	16r	.	16r	.	16r	.	16ryy	.	16r	.
*Xrep	*	*	*	*	*	*	*	*	*	*Xrep	*	*	*	*	*	*Xrep	*	*	*	*	*	*	*	*	*
*rep	*	*	*	*	*	*	*	*	*	*rep	*	*	*	*	*	*rep	*	*	*	*	*	*	*	*	*
!LO:SIC:s=16D/	!	!	!	!	!	!	!	!	!	!	!	!	!	!	!	!	!	!	!	!	!	!	!	!	!
16Re/	.	16D\	.	16f# 16A\	.	16aa 16dd\	.	16ccc 16dd\	.	16d 16F# 16D\	.	16cc 16a/	.	16D\yy	.	16d 16D/	.	16cc 16a/	.	16aa 16ff#\	.	16cc\yy|	.	16ccc\|	.
16r	.	16r	.	16r	.	16r	.	16r	.	16r	.	16r	.	16ryy	.	16r	.	16r	.	16r	.	16ryy	.	16r	.
*Xrep	*	*	*	*	*	*	*	*	*	*Xrep	*	*	*	*	*	*Xrep	*	*	*	*	*	*	*	*	*
!!LO:PB:g=original
=36	=36	=36	=36	=36	=36	=36	=36	=36	=36	=36	=36	=36	=36	=36	=36	=36	=36	=36	=36	=36	=36	=36	=36	=36	=36
*	*	*	*	*	*	*	*	*	*	*	*	*	*	*^	*	*^	*	*^	*	*	*	*	*	*	*
4.r	.	16GG/	.	16g 16B\	.	16gg\	.	16bb\	.	4.r	.	16b 16g/	.	16G 16GG\	16ryy	.	8r	8ryy	.	16b'/LL	16g\	.	16bb 16gg\	.	16b'\LLyy	.	16bb'\LL	.
.	.	16r	p	16r	.	16r	.	16r	.	.	.	16r	.	16r	16ryy	.	.	.	.	16dd'/	16r	.	16r	.	16dd'\yy	.	16ddd'\	.
.	.	(8GG/L	.	(8f#L 8A#X^<\	.	(8e^>/L	p	8r	.	.	.	8r	.	(8A#X/L	8F#^<\L	.	4f#^</	(>8e\L	p	16cc#X'/	8r	.	8r	.	16cc#X'\yy	.	16ccc#X'\	.
.	.	.	.	.	.	.	.	.	.	.	.	.	.	.	.	.	.	.	.	16ff#'/J	.	.	.	.	16ff#'\Jyy	.	16fff#'\J	.
.	.	8BB/J)	.	8f#J 8B\)	.	8d/J)	.	8r	.	.	.	8r	.	8B/J)	8BB\J	.	.	8d\J)	.	8b'/J	8r	.	8r	.	8b'\Jyy	.	8bb'\J	.
*	*	*	*	*	*	*	*	*	*	*	*	*	*	*v	*v	*	*	*	*	*v	*v	*	*	*	*	*	*	*
*	*	*	*	*	*	*	*	*	*	*	*	*	*	*	*	*v	*v	*	*	*	*	*	*	*	*	*
=37	=37	=37	=37	=37	=37	=37	=37	=37	=37	=37	=37	=37	=37	=37	=37	=37	=37	=37	=37	=37	=37	=37	=37	=37	=37
!	!	!	!	!	!	!	!	!	!LO:DY:rj	!	!	!	!	!LO:TX:a:t=col b&colon;	!	!	!	!	!	!	!	!LO:TX:a:t=Col Flauto	!	!	!
4.ryy	.	16D\	f	16f# 16A/	.	16aa 16dd 16d\	.	16ccc 16dd^<\	f	16dyy 16F#yy 16D\yy	.	16ccyy 16a/yy	.	16D\yy	.	16dyy 16D/yy	.	16ccyy 16a/yy	fyy	16aayy 16ff#\yy	fyy	16cc\yy|	.	16ccc\yy|	f
.	.	16r	.	16r	.	16r	.	16r	.	16ryy	.	16ryy	.	16ryy	.	16ryy	.	16ryy	.	16ryy	.	16ryy	.	16ryy	.
!	!	!	!	!	!	!	!	!	!	!	!	!	!	!	!	!	!	!	!	!	!	!	!	!LO:TX:a:t=1.	!
.	.	16d 16D\	.	16a 16A\	.	16dd 16f#\	.	16dd 16d^</	.	16dyy 16F#yy 16D\yy	.	16ayy 16f#/yy	.	16dyy 16D\yy	.	16dyy 16D/yy	.	16f#/yy16ayy	.	16cccyy 16aa\yy	.	16a/yy|	.	16aa\yy|	.
.	.	16r	.	16r	.	16r	.	16r	.	16ryy	.	16ryy	.	16ryy	.	16ryy	.	16ryy	.	16ryy	.	16ryy	.	16ryy	.
.	.	16D\	.	16f# 16A/	.	16aa 16dd\	.	16ccc 16dd^<\	.	16dyy 16F#yy 16D\yy	.	16ccyy 16a/yy	.	16D\yy	.	16dyy 16D/yy	.	16ccyy 16a/yy	.	16aayy 16ff#\yy	.	16cc\yy|	.	16ccc\yy|	.
.	.	16r	.	16r	.	16r	.	16r	.	16ryy	.	16ryy	.	16ryy	.	16ryy	.	16ryy	.	16ryy	.	16ryy	.	16ryy	.
=38	=38	=38	=38	=38	=38	=38	=38	=38	=38	=38	=38	=38	=38	=38	=38	=38	=38	=38	=38	=38	=38	=38	=38	=38	=38
4.ryy	.	16G\	.	16gLL 16B\	.	16gg'\LL	.	16bb'\LL	.	4.ryy	.	16byyLL 16g/yy	.	16G\yy	.	4.ryy	.	16byyLL 16g'/yy	.	16gg'\LLyy	.	16b\LLyy|	.	16bb\LLyy|	.
.	.	16r	.	16r	.	16aa'\	.	16ccc'\	.	.	.	16ccyy 16a/yy	.	16ryy	.	.	.	16ccyy 16a'/yy	.	16aa'\yy	.	16cc\yy|	.	16ccc\yy|	.
!	!	!	!	!	!	!	!	!	!	!	!	!	!	!	!	!	!	!	!	!	!	!	!	!LO:TX:a:t=2.	!
.	.	16GG/	.	16gJ 16B\	.	16bb'\	.	16ddd'\	.	.	.	16ddyy 16b/yy	.	16GG/yy	.	.	.	16ddyy 16b'/yy	.	16bb'\yy	.	16dd\yy|	.	16ddd\yy|	.
.	.	16r	.	16r	.	16ccc'\J	.	16eee'\J	.	.	.	16eeyyJ 16cc/yy	.	16ryy	.	.	.	16eeyyJ 16cc'/yy	.	16ccc'\Jyy	.	16ee\Jyy|	.	16eee\Jyy|	.
.	.	8G\	.	8gJ 8B\	.	8bb'\J	.	8ddd'\J	.	.	.	8ddyyJ 8b/yy	.	8G\yy	.	.	.	8ddyyJ 8b'/yy	.	8bb'\Jyy	.	8dd\Jyy|	.	8ddd\Jyy|	.
=39	=39	=39	=39	=39	=39	=39	=39	=39	=39	=39	=39	=39	=39	=39	=39	=39	=39	=39	=39	=39	=39	=39	=39	=39	=39
*	*	*	*	*	*	*	*	*	*	*	*	*	*	*	*	*	*	*^	*	*	*	*	*	*	*
!	!	!	!	!	!	!	!	!	!	!	!	!	!	!LO:TX:a:t=col b&colon;	!	!	!	!	!	!	!	!	!	!	!	!
8r	.	16.C/LL	.	16.gLL 16.c\	.	16.cccLL 16.ee\	.	16.eee\LL	.	16.cLL 16.G 16.C\	.	16.eeLL 16.g\	.	16.C/LLyy	.	16.eLL 16.cX\	.	16.eeLL 16.cc\	16ryy	.	16.cccLL 16.gg\	.	16.ee\LLyy	.	16.eee\LL	.
.	.	.	.	.	.	.	.	.	.	.	.	.	.	.	.	.	.	.	16ryy	.	.	.	.	.	.	.
.	.	32C/JJk	.	32gJJk 32c\	.	32cccJJk 32ee\	.	32eee\JJk	.	32cJJk 32G 32C\	.	32eeJJk 32g\	.	32C/JJkyy	.	32eJJk 32c\	.	32eeJJk 32cc\	.	.	32cccJJk 32gg\	.	32ee\JJkyy	.	32eee\JJk	.
!LO:SIC:s=8D/L	!	!	!	!	!	!	!	!	!	!	!	!	!	!	!	!	!	!	!	!	!	!	!	!	!	!
8Re/L	.	8D\L	.	8gL 8B\	.	8bb 8dd\	.	8ddd\L	.	8BL 8G 8D\	.	8ddL 8g\	.	8D\Lyyyy	.	8d\L	.	8dd/L	8b\L	.	8bbL 8gg\	.	8dd\Lyy	.	8ddd\L	.
!LO:SIC:s=8D/J	!	!	!	!	!	!	!	!	!	!	!	!	!	!	!	!	!	!	!	!	!	!	!	!	!	!
8Re/J	.	8D\J	.	8f#J 8A\	.	8cc 8d/	.	8ff#t\J	.	8cJ 8A 8D\	.	8ddJ 8a\	.	8D\Jyy	.	8f#J 8d\	.	8ff#t/J	8cc\J	.	8aaJ 8ff#t\	.	8ff#t\Jyy	.	8fff#t\J	.
=40	=40	=40	=40	=40	=40	=40	=40	=40	=40	=40	=40	=40	=40	=40	=40	=40	=40	=40	=40	=40	=40	=40	=40	=40	=40	=40
*	*	*	*	*	*	*	*	*	*	*^	*	*^	*	*	*	*	*	*	*	*	*	*	*	*	*	*
!LO:SIC:s=16D/	!	!	!	!	!	!	!	!	!	!	!	!	!	!	!	!	!	!	!	!	!	!	!	!	!	!	!	!
16Re/	.	16GG/	.	16g 16B\	.	16b 16d/	.	16gg\	.	16B 16G\	16ryy	.	16g/	16g\	.	16GG/yy	.	16g\	.	16gg 16b\	16ryy	.	16bb 16gg\	.	16gg\yy	.	16ggg\	.
16r	.	16r	.	16r	.	16r	.	16r	.	16r	16ryy	.	16r	16ryy	.	16ryy	.	16r	.	16r	16ryy	.	16r	.	16ryy	.	16r	.
8r	.	8G\	.	8G/	.	8g 8G/	.	8g 8G/	.	8G 8GG/	8GG\	.	8g/	8g\	.	8G\yy	.	8g^\	.	8g^/	8g\	.	8g/	.	8g^/yy	.	8gg^\	.
8r	.	8r	.	8r	.	8r	.	8r	.	8r	8ryy	.	8r	8r	.	8ryy	.	8r	.	8r	8ryy	.	8r	.	8ryy	.	8r	.
*	*	*	*	*	*	*	*	*	*	*v	*v	*	*	*	*	*	*	*	*	*v	*v	*	*	*	*	*	*	*
*	*	*	*	*	*	*	*	*	*	*	*	*v	*v	*	*	*	*	*	*	*	*	*	*	*	*	*
!!LO:PB:g=original
=41	=41	=41	=41	=41	=41	=41	=41	=41	=41	=41	=41	=41	=41	=41	=41	=41	=41	=41	=41	=41	=41	=41	=41	=41	=41
*	*	*^	*	*	*	*	*	*	*	*	*	*	*	*^	*	*	*	*	*	*	*	*	*	*	*
*	*	*	*	*	*tremolo	*	*	*	*	*	*	*	*	*	*	*	*	*	*	*	*	*	*	*	*	*	*
!	!	!	!	!	!	!	!	!	!	!	!	!	!	!	!LO:TX:a:t=2o.	!	!	!	!	!	!	!	!	!	!	!	!
!	!	!	!	!	!	!	!LO:TX:a:t=4ta Corda	!	!	!	!	!	!	!	!LO:TX:t=P:problem=mixed beam	!	!	!	!	!	!	!	!	!	!	!	!
4.ryy	.	16BB/yy	16BB\yy	.	16B/LLyy	mfyy	8d'^/Lyy	.	8f#/L	.	4.ryy	.	4.ryy	.	4.ryy	8BB\Lyy	.	4.ryy	.	4.ryy	.	8ff#yyL 8dd~^<\yy	.	4.ryy	.	4.ryy	.
.	.	16B/LLyy	16ryy	.	16B/yy	.	.	.	.	.	.	.	.	.	.	.	.	.	.	.	.	.	.	.	.	.	.
.	.	16B/yy	8ryy	.	16B/yy	.	8d'^/yy	.	8f#/	.	.	.	.	.	.	8B\yy	.	.	.	.	.	8ff#yy 8dd~^<\yy	.	.	.	.	.
.	.	16B/yy	.	.	16B/yyyy	.	.	.	.	.	.	.	.	.	.	.	.	.	.	.	.	.	.	.	.	.	.
.	.	16B/yy	8ryy	.	16B/yy	.	8d'^/Jyyyy	.	8f#/J	.	.	.	.	.	.	8B\Jyy	.	.	.	.	.	8ff#yyJ 8dd~^<\yy	.	.	.	.	.
.	.	16B/JJyy	.	.	16B/JJyy	.	.	.	.	.	.	.	.	.	.	.	.	.	.	.	.	.	.	.	.	.	.
=42	=42	=42	=42	=42	=42	=42	=42	=42	=42	=42	=42	=42	=42	=42	=42	=42	=42	=42	=42	=42	=42	=42	=42	=42	=42	=42	=42
*	*	*	*	*	*	*	*	*	*	*	*	*	*	*	*	*	*	*	*	*	*	*	*	*^	*	*	*
!	!	!	!	!	!	!	!	!	!	!	!	!	!	!	!LO:TX:t=P:problem=mixed beam	!	!	!	!	!	!	!	!	!	!	!	!	!
4.ryy	.	16BB/yy	16BB\yy	.	16B/LLyy	.	16.e/LLyy	.	16.g/LL	.	4.ryy	.	4.ryy	.	4.ryy	8BB\Lyy	.	4.ryy	.	4.ryy	.	16.ggyyLL 16.ee\yy	.	16.gg\LLyy	4.ryy	.	4.ryy	.
.	.	16B/LLyy	16ryy	.	16B/yy	.	.	.	.	.	.	.	.	.	.	.	.	.	.	.	.	.	.	.	.	.	.	.
.	.	.	.	.	.	.	32e/JJkyy	.	32g/JJk	.	.	.	.	.	.	.	.	.	.	.	.	32ggyyJJk 32ee\yy	.	32gg\JJkyy	.	.	.	.
.	.	16B/yy	8ryy	.	16B/yy	.	8d/Lyy	.	8f#/L	.	.	.	.	.	.	8B\yy	.	.	.	.	.	8ff#yyL 8dd\yy	.	8ff#\Lyy	.	.	.	.
.	.	16B/yy	.	.	16B/yy	.	.	.	.	.	.	.	.	.	.	.	.	.	.	.	.	.	.	.	.	.	.	.
.	.	16B/yy	8ryy	.	16B/yy	.	8cT/Jyy	.	8eT/J	.	.	.	.	.	.	8B\Jyy	.	.	.	.	.	8eeyyJ 8cc#Xt\yy	.	8eeT\Jyy	.	.	.	.
.	.	16B/JJyy	.	.	16B/JJyy	.	.	.	.	.	.	.	.	.	.	.	.	.	.	.	.	.	.	.	.	.	.	.
*	*	*	*	*	*	*	*	*	*	*	*	*	*	*	*	*	*	*	*	*	*	*	*	*v	*v	*	*	*
=43	=43	=43	=43	=43	=43	=43	=43	=43	=43	=43	=43	=43	=43	=43	=43	=43	=43	=43	=43	=43	=43	=43	=43	=43	=43	=43	=43
!	!	!	!	!	!	!	!	!	!	!	!	!	!	!	!LO:TX:t=P:problem=mixed beam	!	!	!	!	!	!	!	!	!	!	!	!
4.ryy	.	16BB/yy	16BB\yy	.	16B/LLyy	.	8B^/Lyy	.	8d/L	.	4.ryy	.	4.ryy	.	4.ryy	8BB\Lyy	.	4.ryy	.	4.ryy	.	8ddyyL 8b^\yy	.	4.ryy	.	4.ryy	.
.	.	16B/LLyy	16ryy	.	16B/yy	.	.	.	.	.	.	.	.	.	.	.	.	.	.	.	.	.	.	.	.	.	.
.	.	16B/yy	8ryy	.	16B/yy	.	8d^/yy	.	8f#/	.	.	.	.	.	.	8B\yy	.	.	.	.	.	8ff#yy 8dd^\yy	.	.	.	.	.
.	.	16B/yy	.	.	16B/yy	.	.	.	.	.	.	.	.	.	.	.	.	.	.	.	.	.	.	.	.	.	.
.	.	16B/yy	8ryy	.	16B/yy	.	8d^/Jyy	.	8f#/J	.	.	.	.	.	.	8B\Jyy	.	.	.	.	.	8ff#yyJ 8dd^\yy	.	.	.	.	.
.	.	16B/JJyy	.	.	16B/JJyy	.	.	.	.	.	.	.	.	.	.	.	.	.	.	.	.	.	.	.	.	.	.
=44	=44	=44	=44	=44	=44	=44	=44	=44	=44	=44	=44	=44	=44	=44	=44	=44	=44	=44	=44	=44	=44	=44	=44	=44	=44	=44	=44
*	*	*	*	*	*	*	*	*	*	*	*	*	*	*	*	*	*	*	*	*	*	*	*	*^	*	*	*
!	!	!	!	!	!	!	!	!	!	!	!	!	!	!	!LO:TX:t=P:problem=mixed beam	!	!	!	!	!	!	!	!	!	!	!	!	!
4.ryy	.	16BB/yy	16BB\yy	.	16B/LLyy	.	16.e/LLyy	.	16.g/LL	.	4.ryy	.	4.ryy	.	4.ryy	8BB\Lyy	.	4.ryy	.	4.ryy	.	16.ggyyLL 16.ee\yy	.	16gg\LLyy	4.ryy	.	4.ryy	.
.	.	16B/LLyy	16ryy	.	16B/yy	.	.	.	.	.	.	.	.	.	.	.	.	.	.	.	.	.	.	16gg\Jyy	.	.	.	.
.	.	.	.	.	.	.	32e/JJkyy	.	32g/JJk	.	.	.	.	.	.	.	.	.	.	.	.	32ggyyJJk 32ee\yy	.	.	.	.	.	.
.	.	16B/yy	8ryy	.	16B/yy	.	8d/Lyy	.	8f#/L	.	.	.	.	.	.	8B\yy	.	.	.	.	.	8ff#yyL 8dd\yy	.	8ff#\yy	.	.	.	.
.	.	16B/yy	.	.	16B/yy	.	.	.	.	.	.	.	.	.	.	.	.	.	.	.	.	.	.	.	.	.	.	.
.	.	16B/yy	8ryy	.	16B/yy	.	8Bt/Jyy	.	8d/J	.	.	.	.	.	.	8B\Jyy	.	.	.	.	.	8ddyyJ 8bt\yy	.	8ddT\Jyy	.	.	.	.
.	.	16B/JJyy	.	.	16B/JJyy	.	.	.	.	.	.	.	.	.	.	.	.	.	.	.	.	.	.	.	.	.	.	.
*	*	*	*	*	*Xtremolo	*	*	*	*	*	*	*	*	*	*	*	*	*	*	*	*	*	*	*	*	*	*	*
*	*	*v	*v	*	*	*	*	*	*	*	*	*	*	*	*	*	*	*	*	*	*	*	*	*v	*v	*	*	*
=45	=45	=45	=45	=45	=45	=45	=45	=45	=45	=45	=45	=45	=45	=45	=45	=45	=45	=45	=45	=45	=45	=45	=45	=45	=45	=45
*	*	*	*	*	*	*	*	*	*	*	*	*^	*	*	*	*	*	*	*^	*	*	*	*	*	*	*
!	!	!	!	!	!	!LO:N:vis=8	!	!LO:N:vis=8	!	!	!	!	!	!	!	!	!	!	!	!	!	!	!	!	!	!	!	!
4.ryy	.	16FF#/yy	fpyy	16ryy	.	16ryy	.	16ryy	.	4.ryy	.	8ryy	4.ryy	.	4.e/yyyy	4A#X\yy	fpyy	[yy4.f#yy [yy4.F#/yy	fpyy	(16cc#X/LLyy	4.ryy	.	4.r	.	4.ryy	.	(16aa#X\LL	.
.	.	16ryy	.	16F#/yy	.	16A#X/LLyy	.	16eyyLL 16c#X/yy	pyy	.	.	.	.	.	.	.	.	.	.	32ff#/JJk)yy	.	.	.	.	.	.	32fff#\JJk)	.
.	.	.	.	.	.	.	.	.	.	.	.	.	.	.	.	.	.	.	.	32ryy	.	.	.	.	.	.	32r	.
.	.	16F#\yy	.	16ryy	.	16ryy	.	16ryy	.	.	.	8f#/Lyy	.	.	.	.	.	.	.	8f#/Lyy|	.	.	.	.	.	.	8ff#'\L	.
.	.	16ryy	.	16F#/LLyy	.	16A#/yy	.	16eyy 16c#/yy	.	.	.	.	.	.	.	.	.	.	.	.	.	.	.	.	.	.	.	.
.	.	16FF#/yy	pyy	16ryy	.	16ryy	.	16ryy	.	.	.	8a#X/Jyy	.	.	.	8c#X\yy	.	.	.	8a#X/Jyy|	.	.	.	.	.	.	8aa#X'\J	.
.	.	16ryy	.	16F#/JJyy	.	16A#/JJyy	.	16eyyJJ 16c#/yy	.	.	.	.	.	.	.	.	.	.	.	.	.	.	.	.	.	.	.	.
=46	=46	=46	=46	=46	=46	=46	=46	=46	=46	=46	=46	=46	=46	=46	=46	=46	=46	=46	=46	=46	=46	=46	=46	=46	=46	=46	=46	=46
!	!	!	!	!	!	!LO:N:vis=8	!	!	!	!	!	!	!	!	!	!	!	!	!	!	!	!	!	!	!	!	!	!
4.ryy	.	16BB/yy	.	16ryy	.	16ryy	.	16ryy	.	4.ryy	.	16b/LLyy	4.ryy	.	4.d/yy	4.B\yy	.	4.f#]yy 4.F#/]yy	.	16b/LLyy|	4.ryy	.	4.r	.	4.ryy	.	16.bb'\LL	.
.	.	16ryy	.	16F#/LLyy	.	16B/LLyy	.	16d/LLyy	.	.	.	16cc#X/JJyyyy	.	.	.	.	.	.	.	16cc#X/JJyy|	.	.	.	.	.	.	.	.
.	.	.	.	.	.	.	.	.	.	.	.	.	.	.	.	.	.	.	.	.	.	.	.	.	.	.	32ccc#X'\JJk	.
.	.	16B\yy	.	16ryy	.	16ryy	.	16ryy	.	.	.	4dd/yy	.	.	.	.	.	.	.	4dd/yy|	.	.	.	.	.	.	4ddd'\	.
.	.	16ryy	.	16F#/yy	.	16B/yy	.	16d/yy	.	.	.	.	.	.	.	.	.	.	.	.	.	.	.	.	.	.	.	.
.	.	16BB/yy	.	16ryy	.	16ryy	.	16ryy	.	.	.	.	.	.	.	.	.	.	.	.	.	.	.	.	.	.	.	.
.	.	16ryy	.	16F#/JJyy	.	16B/JJyy	.	16d/JJyy	.	.	.	.	.	.	.	.	.	.	.	.	.	.	.	.	.	.	.	.
*	*	*	*	*	*	*	*	*	*	*	*	*v	*v	*	*	*	*	*	*	*v	*v	*	*	*	*	*	*	*
!!LO:PB:g=original
=47	=47	=47	=47	=47	=47	=47	=47	=47	=47	=47	=47	=47	=47	=47	=47	=47	=47	=47	=47	=47	=47	=47	=47	=47	=47	=47
!LO:TX:t=1ma	!	!	!	!	!	!	!	!	!	!	!	!	!	!	!	!	!	!	!	!	!	!	!	!	!	!
*>D1	*	*	*	*	*	*	*	*	*	*	*	*	*	*	*	*	*	*	*	*	*	*	*	*	*	*
*	*	*	*	*	*	*	*	*	*	*	*	*	*	*	*	*	*	*	*	*	*^	*	*	*	*	*
!LO:SIC:s=8AA\	!	!LO:N:vis=8	!	!LO:N:vis=8	!	!LO:N:vis=8	!	!	!	!	!LO:DY:a	!	!	!	!	!	!	!	!	!	!	!	!	!	!	!	!
8Re\yy	.	16AA/yy	.	16ryy	.	16ryy	.	(16ee^\LL	.	4.eyy 4.Gyy 4.AA\yy	sfyy	8ryy	.	4.c#X/yy	4.A\yy	.	4.eyy 4.A^/yy	sfyy	(16eeyyLL yy16e^/yy	.	4.cc#X/yy	4.g\yyyy	.	(yy16ee^\LLyy	fyy	(yy16eee\LLyy	.
.	.	16ryy	.	16c#X\LLyy	.	16eyyLL 16A/yy	.	32aa\JJk)	.	.	.	.	.	.	.	.	.	.	32aayyJJk 32a/)yy	.	.	.	.	32aa\JJk)yy	.	32aaa\JJk)yy	.
.	.	.	.	.	.	.	.	32r	.	.	.	.	.	.	.	.	.	.	32ryy	.	.	.	.	32ryy	.	32ryy	.
!	!	!	!	!	!	!	!	!	!	!	!	!LO:TX:a:t=due	!	!	!	!	!	!	!	!	!	!	!	!	!	!	!
8ryy	.	16A\yy	.	16ryy	.	16ryy	.	8a'\L	.	.	.	8A/Lyy	>yy	.	.	.	.	.	8ayyL 8A/yy	.	.	.	.	8a'\Lyy	.	8aa\Lyy	.
.	.	16ryy	.	16c#\yy	.	16eyy 16A/yy	.	.	.	.	.	.	.	.	.	.	.	.	.	.	.	.	.	.	.	.	.
8ryy	.	16AA/yy	.	16ryy	.	16ryy	.	8ee'\J	.	.	.	8e/Jyy	]]	.	.	.	.	.	8eeyyJ 8e/yy	.	.	.	.	8ee'\Jyy	.	8eee\Jyy	.
.	.	16ryy	.	16c#\JJyy	.	16eyyJJ 16A/yy	.	.	.	.	.	.	.	.	.	.	.	.	.	.	.	.	.	.	.	.	.
*	*	*	*	*	*	*	*	*	*	*	*	*	*	*v	*v	*	*	*	*	*	*v	*v	*	*	*	*	*
=48	=48	=48	=48	=48	=48	=48	=48	=48	=48	=48	=48	=48	=48	=48	=48	=48	=48	=48	=48	=48	=48	=48	=48	=48	=48
.	.	.	.	.	.	.	.	.	.	.	.	.	.	.	.	.	.	(8qggyy yy(yy8qg/yy	.	.	.	(yy8qgg/yy	fyy	(yy8qggg/yy	.
*	*	*	*	*	*	*	*	*	*	*	*	*	*	*	*	*^	*	*	*	*	*	*	*	*	*
!LO:SIC:s=16.D/	!	!	!	!	!	!	!LO:DY:a	!	!	!	!LO:DY:a	!	!LO:DY:a	!	!	!	!	!	!	!	!	!	!	!	!	!
16.Re/yy	.	16.D/LLyy|	fyy	16.d\LLyy	fyy	16.f#yyLL 16.A/yy	fyy	16ff#\LL	.	16.dyyLL 16.F#yy 16.D\yy	fyy	16.f#/LLyy	fyy	16.dyyLL 16.D\yy|	.	16f#yyLL 16d/yy	16ryy	fyy	16.ff#yyLL 16.f#/))yy	.	16.ddyyLL 16.f#/yy	.	16ff#\LL)yy	.	16fff#\LL)yy	.
.	.	.	.	.	.	.	.	16ee\JJ	.	.	.	.	.	.	.	16eyyJJ 16A/yy	16ryy	.	.	.	.	.	16ee\JJyy|	.	16eee\JJyy|	.
!LO:SIC:s=32AA\	!	!	!	!	!	!	!	!	!	!	!	!	!	!	!	!	!	!	!	!	!	!	!	!	!	!
32Re\yy	.	32AA/JJkyy|	.	32c#X\JJkyy	.	32eyyJJk 32A/yy	.	.	.	32c#XyyJJk 32Eyy 32AA\yy	.	32e/JJkyy	.	32cyyJJk 32AA\yy|	.	.	.	.	32eeyyJJk 32e/yy	.	32ccyyJJk 32e/yy	.	.	.	.	.
!LO:SIC:s=4D/	!	!	!	!	!	!	!	!	!	!	!	!	!	!	!	!	!	!	!	!	!	!	!	!	!	!
4Re/yy	.	4D/yy|	.	4d\yy	.	4f#yy 4A/yy	.	4dd\	.	4dyy 4F#yy 4D\yy	.	4d/yy	.	4dyy 4D\yy|	.	4f#/yy	4d\yy	.	4ddyy 4d/yy	.	4ddyy 4f#/yy	.	4dd\yy|	.	4ddd\yy|	.
=49:|!	=49:|!	=49:|!	=49:|!	=49:|!	=49:|!	=49:|!	=49:|!	=49:|!	=49:|!	=49:|!	=49:|!	=49:|!	=49:|!	=49:|!	=49:|!	=49:|!	=49:|!	=49:|!	=49:|!	=49:|!	=49:|!	=49:|!	=49:|!	=49:|!	=49:|!	=49:|!
!LO:TX:t=2	!	!	!	!	!	!	!	!	!	!	!	!	!	!	!	!	!	!	!	!	!	!	!	!	!	!
*>D2	*	*	*	*	*	*	*	*	*	*	*	*	*	*	*	*	*	*	*	*	*	*	*	*	*	*
*	*	*	*	*	*	*	*	*	*	*	*	*	*	*	*	*	*	*	*^	*	*^	*	*	*	*	*
4.r	.	8EE/	.	8r	.	8r	.	(16b^\LL	.	4.e 4.B 4.E\	.	8r	.	(4.B (4.E\	.	((4.e^</	4.d\	.	(<16b/LL	16b\LL	.	[4.ee^</	(4.dd\	.	(yy16b^\LLyy	.	(16bb^<\LL	.
.	.	.	.	.	.	.	.	32ee\JJk)	.	.	.	.	.	.	.	.	.	.	32ee/JJk)	32ee\JJk	.	.	.	.	32ee\JJk)yy	.	32eee\JJk)	.
.	.	.	.	.	.	.	.	32r	.	.	.	.	.	.	.	.	.	.	32r	32ryy	.	.	.	.	32ryy	.	32r	.
.	.	8r	.	8BL 8E/	.	8eL 8d/	.	8e/L	.	.	.	8e'/L	.	.	.	.	.	.	8e'/L	8e\L	.	.	.	.	8e/Lyy|	.	8ee\L|	.
.	.	8r	.	8BJ 8E/	.	8eJ 8d/	.	8g#X/J	.	.	.	8g#X'/J	.	.	.	.	.	.	8g#X'/J	8g#\J	.	.	.	.	8g#X/Jyy|	.	8gg#X\J|	.
*	*	*	*	*	*	*	*	*	*	*	*	*	*	*	*	*v	*v	*	*	*	*	*	*	*	*	*	*	*
*	*	*	*	*	*	*	*	*	*	*	*	*	*	*	*	*	*	*v	*v	*	*	*	*	*	*	*	*
=50	=50	=50	=50	=50	=50	=50	=50	=50	=50	=50	=50	=50	=50	=50	=50	=50	=50	=50	=50	=50	=50	=50	=50	=50	=50	=50
.	.	.	.	.	.	.	.	(8qb/	.	.	.	(8qb/	.	.	.	.	.	(8qb/	.	.	.	.	(yy8qb/yy	.	(8qbb/	.
8r	.	16AA/	.	16A/	.	16e 16c#X/	.	16.a/LL)	.	16e 16c#X 16A\	.	16.a/LL)	.	16c#X 16AA\))	.	16e 16A/))	.	16.a/LL)	.	16ee/]	16cc#X\)	.	16.a/LL)yy	.	16.aa\LL)	.
.	.	16r	.	16r	.	16r	.	.	.	16r	.	.	.	16r	.	16r	.	.	.	16r	16ryy	.	.	.	.	.
.	.	.	.	.	.	.	.	32g#X/JJk|	.	.	.	32g#X/JJk|	.	.	.	.	.	32g#X/JJk|	.	.	.	.	32g#X/JKyy|	.	32gg#X\JJk|	.
!LO:SIC:s=8AA\	!	!	!	!	!	!	!	!	!	!	!	!	!	!	!	!	!	!	!	!	!	!	!	!	!	!
8Re\	.	8A\	sf	8a 8e 8A\	.	8e 8c#/	sf	8a'/	.	8e 8c# 8A\	.	8a/	.	8c# 8AA\	sf	8e 8A/	sf	8a/|	.	8ee/	8cc#\	sf	8a/Jyy|	.	8aa\|	sf
!	!	!	!	!	!	!	!	!	!	!LO:TX:a:t=da Capo Mazur.	!	!	!	!	!	!	!	!	!	!	!	!	!	!	!	!
.	.	(8qA/	.	(8qa/	.	(8qa/	.	(8qa/	.	.	.	.	.	(8qA/	.	.	.	.	.	.	.	.	.	.	.	.
8r	.	16.G\LL)	.	16.gn\LL)	.	16.gn/LL)	.	16.gn/LL)	.	8r	.	8r	.	16G\LL)	.	8r	.	8r	.	8r	8ryy	.	8ryy	.	8r	.
.	.	.	.	.	.	.	.	.	.	.	.	.	.	16E\JJ|	.	.	.	.	.	.	.	.	.	.	.	.
.	.	32E\JJk|	.	32e\JJk|	.	32e/JJk|	.	32e/JJk|	.	.	.	.	.	.	.	.	.	.	.	.	.	.	.	.	.	.
*	*	*	*	*	*	*	*	*	*	*	*	*	*	*	*	*	*	*	*	*v	*v	*	*	*	*	*
==	==	==	==	==	==	==	==	==	==	==	==	==	==	==	==	==	==	==	==	==	==	==	==	==	==
*-	*-	*-	*-	*-	*-	*-	*-	*-	*-	*-	*-	*-	*-	*-	*-	*-	*-	*-	*-	*-	*-	*-	*-	*-	*-
!!!system-decoration: [(s1,s2)]s3,s4,s5,s6,s7,s8[(s9,s10)][(s11,s12)]s13
!!!RDF**kern: > = above
!!!RDF**kern: < = below
!!!EED: Leszek Kubiak
!!!EST: 2021-06-30
!!!AIN: 1 clars 1 cor 1 empty 1 fagot 1 flt 1 oboe 1 picco 1 timpa 1 tromp 1 tromt 1 viola 2 violn
!!!ENC: Krzysztof Stępień
!!!END: 2021-06-08
!!!RDF**kern: | = vertical stroke
